(.../Documents/eagle/pcbgcode/pcb-gcode.ulp)
(Copyright 2005 - 2012 by John Johnson)
(See readme.txt for licensing terms.)
(This file generated from the board:)
(.../ardmos/schematics/164shiftout.brd)
(Current profile is .../eagle/pcbgcode/profiles/mach.pp  )
(This file generated 7/27/15 11:38 PM)
(Settings from pcb-machine.h)
(spindle on time = 1.0000)
(spindle speed = 20000.0000)
(tool change at 0.0000  0.0000  25.4000 )
(feed rate xy = F0     )
(feed rate z  = F50    )
(Z Axis Settings)
(  High     Up        Down     Drill)
(5.0000  	2.0000  	-0.0500 	-2.5000 )
(Settings from pcb-defaults.h)
(isolate min = 0.3500)
(isolate max = 0.5000)
(isolate step = 0.2000)
(Generated bottom outlines, bottom drill, )
(Unit of measure: mm)
( Tool|       Size       |  Min Sub |  Max Sub |   Count )
( T01 | 0.600mm 0.0236in | 0.0000in | 0.0000in |       0 )
( T02 | 0.813mm 0.0320in | 0.0000in | 0.0000in |       0 )
( T03 | 1.016mm 0.0400in | 0.0000in | 0.0000in |       0 )
(Metric Mode)
G21
(Absolute Coordinates)
G90
S20000
G00 Z5.0000  
G00 X0.0000  Y0.0000  
M03
G04 P1.000000
M05
G00 Z25.4000 
M06 T01  ; 0.6000  
G00 Z2.0000  
M03
G04 P1.000000
G00 X-3.8100 Y8.8900  
G01 Z-2.5000 F50    
G00 Z2.0000  
G00 X-6.3500 Y10.1600 
G01 Z-2.5000 F50    
G00 Z2.0000  
G00 X-11.4300 Y10.1600 
G01 Z-2.5000 F50    
G00 Z2.0000  
G00 X-13.9700 Y8.8900  
G01 Z-2.5000 F50    
G00 Z2.0000  
G00 X-11.4300 Y6.3500  
G01 Z-2.5000 F50    
G00 Z2.0000  
G00 X-21.5900 Y11.4300 
G01 Z-2.5000 F50    
G00 Z2.0000  
G00 X-24.1300 Y8.8900  
G01 Z-2.5000 F50    
G00 Z2.0000  
G00 X-29.2100 Y13.9700 
G01 Z-2.5000 F50    
G00 Z2.0000  
G00 X-31.7500 Y13.9700 
G01 Z-2.5000 F50    
G00 Z2.0000  
G00 X-36.8300 Y13.9700 
G01 Z-2.5000 F50    
G00 Z2.0000  
G00 X-36.8300 Y11.4300 
G01 Z-2.5000 F50    
G00 Z2.0000  
G00 X-36.8300 Y8.8900  
G01 Z-2.5000 F50    
G00 Z2.0000  
G00 X-36.8300 Y6.3500  
G01 Z-2.5000 F50    
G00 Z2.0000  
G00 X-36.8300 Y19.0500 
G01 Z-2.5000 F50    
G00 Z2.0000  
G00 X-36.8300 Y21.5900 
G01 Z-2.5000 F50    
G00 Z2.0000  
G00 X-36.8300 Y24.1300 
G01 Z-2.5000 F50    
G00 Z2.0000  
G00 X-31.7500 Y21.5900 
G01 Z-2.5000 F50    
G00 Z2.0000  
G00 X-31.7500 Y19.0500 
G01 Z-2.5000 F50    
G00 Z2.0000  
G00 X-29.2100 Y22.8600 
G01 Z-2.5000 F50    
G00 Z2.0000  
G00 X-29.2100 Y26.6700 
G01 Z-2.5000 F50    
G00 Z2.0000  
G00 X-26.6700 Y29.2100 
G01 Z-2.5000 F50    
G00 Z2.0000  
G00 X-21.5900 Y26.6700 
G01 Z-2.5000 F50    
G00 Z2.0000  
G00 X-20.3200 Y29.2100 
G01 Z-2.5000 F50    
G00 Z2.0000  
G00 X-19.0500 Y24.1300 
G01 Z-2.5000 F50    
G00 Z2.0000  
M05
G00 Z25.4000 
G00 X0.0000  Y0.0000  
M06 T02  ; 0.8128  
G00 Z2.0000  
M03
G04 P1.000000
G00 X-11.4300 Y13.9700 
G01 Z-2.5000 F50    
G00 Z2.0000  
G00 X-13.9700 Y13.9700 
G01 Z-2.5000 F50    
G00 Z2.0000  
G00 X-16.5100 Y13.9700 
G01 Z-2.5000 F50    
G00 Z2.0000  
G00 X-19.0500 Y13.9700 
G01 Z-2.5000 F50    
G00 Z2.0000  
G00 X-21.5900 Y13.9700 
G01 Z-2.5000 F50    
G00 Z2.0000  
G00 X-24.1300 Y13.9700 
G01 Z-2.5000 F50    
G00 Z2.0000  
G00 X-26.6700 Y13.9700 
G01 Z-2.5000 F50    
G00 Z2.0000  
G00 X-26.6700 Y21.5900 
G01 Z-2.5000 F50    
G00 Z2.0000  
G00 X-24.1300 Y21.5900 
G01 Z-2.5000 F50    
G00 Z2.0000  
G00 X-21.5900 Y21.5900 
G01 Z-2.5000 F50    
G00 Z2.0000  
G00 X-19.0500 Y21.5900 
G01 Z-2.5000 F50    
G00 Z2.0000  
G00 X-16.5100 Y21.5900 
G01 Z-2.5000 F50    
G00 Z2.0000  
G00 X-13.9700 Y21.5900 
G01 Z-2.5000 F50    
G00 Z2.0000  
G00 X-11.4300 Y21.5900 
G01 Z-2.5000 F50    
G00 Z2.0000  
G00 X-39.3700 Y21.5900 
G01 Z-2.5000 F50    
G00 Z2.0000  
G00 X-39.3700 Y19.0500 
G01 Z-2.5000 F50    
G00 Z2.0000  
G00 X-39.3700 Y16.5100 
G01 Z-2.5000 F50    
G00 Z2.0000  
G00 X-39.3700 Y13.9700 
G01 Z-2.5000 F50    
G00 Z2.0000  
G00 X-39.3700 Y11.4300 
G01 Z-2.5000 F50    
G00 Z2.0000  
G00 X-39.3700 Y8.8900  
G01 Z-2.5000 F50    
G00 Z2.0000  
G00 X-39.3700 Y6.3500  
G01 Z-2.5000 F50    
G00 Z2.0000  
G00 X-46.9900 Y6.3500  
G01 Z-2.5000 F50    
G00 Z2.0000  
G00 X-46.9900 Y8.8900  
G01 Z-2.5000 F50    
G00 Z2.0000  
G00 X-46.9900 Y11.4300 
G01 Z-2.5000 F50    
G00 Z2.0000  
G00 X-46.9900 Y13.9700 
G01 Z-2.5000 F50    
G00 Z2.0000  
G00 X-46.9900 Y16.5100 
G01 Z-2.5000 F50    
G00 Z2.0000  
G00 X-46.9900 Y19.0500 
G01 Z-2.5000 F50    
G00 Z2.0000  
G00 X-46.9900 Y21.5900 
G01 Z-2.5000 F50    
G00 Z2.0000  
G00 X-46.9900 Y24.1300 
G01 Z-2.5000 F50    
G00 Z2.0000  
G00 X-46.9900 Y26.6700 
G01 Z-2.5000 F50    
G00 Z2.0000  
G00 X-46.9900 Y29.2100 
G01 Z-2.5000 F50    
G00 Z2.0000  
G00 X-39.3700 Y29.2100 
G01 Z-2.5000 F50    
G00 Z2.0000  
G00 X-39.3700 Y26.6700 
G01 Z-2.5000 F50    
G00 Z2.0000  
G00 X-39.3700 Y24.1300 
G01 Z-2.5000 F50    
G00 Z2.0000  
M05
G00 Z25.4000 
G00 X0.0000  Y0.0000  
M06 T03  ; 1.0160  
G00 Z2.0000  
M03
G04 P1.000000
G00 X-7.6200 Y29.2100 
G01 Z-2.5000 F50    
G00 Z2.0000  
G00 X-10.1600 Y29.2100 
G01 Z-2.5000 F50    
G00 Z2.0000  
G00 X-12.7000 Y29.2100 
G01 Z-2.5000 F50    
G00 Z2.0000  
G00 X-15.2400 Y29.2100 
G01 Z-2.5000 F50    
G00 Z2.0000  
G00 X-17.7800 Y29.2100 
G01 Z-2.5000 F50    
G00 Z2.0000  
G00 X-50.8000 Y26.6700 
G01 Z-2.5000 F50    
G00 Z2.0000  
G00 X-50.8000 Y24.1300 
G01 Z-2.5000 F50    
G00 Z2.0000  
G00 X-50.8000 Y21.5900 
G01 Z-2.5000 F50    
G00 Z2.0000  
G00 X-50.8000 Y19.0500 
G01 Z-2.5000 F50    
G00 Z2.0000  
G00 X-50.8000 Y16.5100 
G01 Z-2.5000 F50    
G00 Z2.0000  
G00 X-50.8000 Y13.9700 
G01 Z-2.5000 F50    
G00 Z2.0000  
G00 X-50.8000 Y11.4300 
G01 Z-2.5000 F50    
G00 Z2.0000  
G00 X-50.8000 Y8.8900  
G01 Z-2.5000 F50    
G00 Z2.0000  
T01 
G00 Z5.0000  
M05
M02
