(.../Documents/eagle/pcbgcode/pcb-gcode.ulp)
(Copyright 2005 - 2012 by John Johnson)
(See readme.txt for licensing terms.)
(This file generated from the board:)
(.../ardmos/schematics/164shiftout.brd)
(Current profile is .../eagle/pcbgcode/profiles/mach.pp  )
(This file generated 7/27/15 11:36 PM)
(Settings from pcb-machine.h)
(spindle on time = 1.0000)
(  Tool Size)
(0.0800  )
(spindle speed = 30000.0000)
(tool change at 0.0000  0.0000  25.4000 )
(feed rate xy = F500   )
(feed rate z  = F500   )
(Z Axis Settings)
(  High     Up        Down     Drill)
(5.0000  	2.0000  	-0.0500 	-2.5000 )
(Settings from pcb-defaults.h)
(isolate min = 0.3500)
(isolate max = 0.5000)
(isolate step = 0.2000)
(Generated bottom outlines, bottom drill, )
(Unit of measure: mm)
(Metric Mode)
G21
(Absolute Coordinates)
G90
S30000
G00 Z5.0000  
G00 X0.0000  Y0.0000  
M03
G04 P1.000000
G00 Z2.0000  
G00 X-8.0938 Y1.8866  
G01 Z-0.0500 F500   
G01 X-8.2366 Y1.7438  F500   
G01 X-8.4045 Y1.6317  
G01 X-8.5910 Y1.5544  
G01 X-8.7890 Y1.5150  
G01 X-47.0910 Y1.5150  
G01 X-47.2890 Y1.5544  
G01 X-47.4755 Y1.6317  
G01 X-47.6434 Y1.7438  
G01 X-47.7862 Y1.8866  
G01 X-47.8983 Y2.0545  
G01 X-47.9756 Y2.2410  
G01 X-48.0150 Y2.4390  
G01 X-48.0150 Y5.3640  
G01 X-48.0536 Y5.3766  
G01 X-48.2009 Y5.4516  
G01 X-48.3347 Y5.5488  
G01 X-48.4516 Y5.6657  
G01 X-48.5488 Y5.7995  
G01 X-48.6238 Y5.9468  
G01 X-48.6749 Y6.1040  
G01 X-48.7008 Y6.2673  
G01 X-48.7008 Y6.4327  
G01 X-48.6749 Y6.5960  
G01 X-48.6238 Y6.7532  
G01 X-48.5488 Y6.9005  
G01 X-48.4516 Y7.0343  
G01 X-48.3347 Y7.1512  
G01 X-48.2009 Y7.2484  
G01 X-48.0536 Y7.3234  
G01 X-47.8964 Y7.3745  
G01 X-47.7331 Y7.4004  
G01 X-46.2469 Y7.4004  
G01 X-46.0836 Y7.3745  
G01 X-45.9264 Y7.3234  
G01 X-45.7791 Y7.2484  
G01 X-45.6453 Y7.1512  
G01 X-45.5284 Y7.0343  
G01 X-45.4312 Y6.9005  
G01 X-45.3562 Y6.7532  
G01 X-45.3051 Y6.5960  
G01 X-45.2792 Y6.4327  
G01 X-45.2792 Y6.2673  
G01 X-45.3051 Y6.1040  
G01 X-45.3562 Y5.9468  
G01 X-45.4312 Y5.7995  
G01 X-45.5284 Y5.6657  
G01 X-45.6453 Y5.5488  
G01 X-45.7791 Y5.4516  
G01 X-45.9264 Y5.3766  
G01 X-45.9650 Y5.3640  
G01 X-45.9650 Y3.5650  
G01 X-9.9150 Y3.5650  
G01 X-9.9150 Y19.8954 
G01 X-10.4867 Y20.4672 
G01 X-10.5316 Y20.3791 
G01 X-10.6288 Y20.2453 
G01 X-10.7457 Y20.1284 
G01 X-10.8795 Y20.0312 
G01 X-11.0268 Y19.9562 
G01 X-11.1840 Y19.9051 
G01 X-11.3473 Y19.8792 
G01 X-11.5127 Y19.8792 
G01 X-11.6760 Y19.9051 
G01 X-11.8332 Y19.9562 
G01 X-11.9805 Y20.0312 
G01 X-12.1143 Y20.1284 
G01 X-12.2312 Y20.2453 
G01 X-12.3284 Y20.3791 
G01 X-12.4034 Y20.5264 
G01 X-12.4545 Y20.6836 
G01 X-12.4804 Y20.8469 
G01 X-12.4804 Y22.3331 
G01 X-12.4550 Y22.4934 
G01 X-12.4550 Y23.1050 
G01 X-12.8010 Y23.1050 
G01 X-12.9990 Y23.1444 
G01 X-13.1855 Y23.2217 
G01 X-13.3534 Y23.3338 
G01 X-15.8934 Y25.8738 
G01 X-16.0362 Y26.0166 
G01 X-16.1483 Y26.1845 
G01 X-16.2256 Y26.3710 
G01 X-16.2650 Y26.5690 
G01 X-16.2650 Y27.9222 
G01 X-16.3076 Y28.0058 
G01 X-16.3636 Y28.1782 
G01 X-16.3920 Y28.3573 
G01 X-16.3920 Y30.0627 
G01 X-16.3636 Y30.2418 
G01 X-16.3076 Y30.4142 
G01 X-16.2253 Y30.5758 
G01 X-16.1187 Y30.7225 
G01 X-15.9905 Y30.8507 
G01 X-15.8438 Y30.9573 
G01 X-15.6822 Y31.0396 
G01 X-15.5098 Y31.0956 
G01 X-15.3307 Y31.1240 
G01 X-15.1493 Y31.1240 
G01 X-14.9702 Y31.0956 
G01 X-14.7978 Y31.0396 
G01 X-14.6362 Y30.9573 
G01 X-14.4895 Y30.8507 
G01 X-14.3613 Y30.7225 
G01 X-14.2547 Y30.5758 
G01 X-14.1724 Y30.4142 
G01 X-14.1164 Y30.2418 
G01 X-14.0880 Y30.0627 
G01 X-14.0880 Y28.3573 
G01 X-14.1164 Y28.1782 
G01 X-14.1724 Y28.0058 
G01 X-14.2150 Y27.9222 
G01 X-14.2150 Y27.0946 
G01 X-12.2754 Y25.1550 
G01 X-11.3290 Y25.1550 
G01 X-11.1310 Y25.1156 
G01 X-10.9445 Y25.0383 
G01 X-10.7766 Y24.9262 
G01 X-10.6338 Y24.7834 
G01 X-10.5217 Y24.6155 
G01 X-10.4444 Y24.4290 
G01 X-10.4050 Y24.2310 
G01 X-10.4050 Y22.6150 
G01 X-10.0590 Y22.6150 
G01 X-9.8610 Y22.5756 
G01 X-9.6745 Y22.4983 
G01 X-9.5066 Y22.3862 
G01 X-8.2366 Y21.1162 
G01 X-8.0938 Y20.9734 
G01 X-7.9817 Y20.8055 
G01 X-7.9044 Y20.6190 
G01 X-7.8650 Y20.4210 
G01 X-7.8650 Y2.4390  
G01 X-7.9044 Y2.2410  
G01 X-7.9817 Y2.0545  
G01 X-8.0938 Y1.8866  
G00 Z2.0000  
G00 X-10.4829 Y5.4755  
G01 Z-0.0500 F500   
G01 X-10.5555 Y5.4029  F500   
G01 X-10.6445 Y5.3516  
G01 X-10.7437 Y5.3250  
G01 X-12.1163 Y5.3250  
G01 X-12.2155 Y5.3516  
G01 X-12.3045 Y5.4029  
G01 X-12.3771 Y5.4755  
G01 X-12.4284 Y5.5645  
G01 X-12.4550 Y5.6637  
G01 X-12.4550 Y13.0666 
G01 X-12.4804 Y13.2269 
G01 X-12.4804 Y14.7131 
G01 X-12.4545 Y14.8764 
G01 X-12.4034 Y15.0336 
G01 X-12.3284 Y15.1809 
G01 X-12.2312 Y15.3147 
G01 X-12.1143 Y15.4316 
G01 X-11.9805 Y15.5288 
G01 X-11.8332 Y15.6038 
G01 X-11.6760 Y15.6549 
G01 X-11.5127 Y15.6808 
G01 X-11.3473 Y15.6808 
G01 X-11.1840 Y15.6549 
G01 X-11.0268 Y15.6038 
G01 X-10.8795 Y15.5288 
G01 X-10.7457 Y15.4316 
G01 X-10.6288 Y15.3147 
G01 X-10.5316 Y15.1809 
G01 X-10.4566 Y15.0336 
G01 X-10.4055 Y14.8764 
G01 X-10.3796 Y14.7131 
G01 X-10.3796 Y13.2269 
G01 X-10.4050 Y13.0666 
G01 X-10.4050 Y5.6637  
G01 X-10.4316 Y5.5645  
G01 X-10.4829 Y5.4755  
G00 Z2.0000  
G00 X-13.0229 Y8.0155  
G01 Z-0.0500 F500   
G01 X-13.0955 Y7.9429  F500   
G01 X-13.1845 Y7.8916  
G01 X-13.2837 Y7.8650  
G01 X-14.6563 Y7.8650  
G01 X-14.7555 Y7.8916  
G01 X-14.8445 Y7.9429  
G01 X-14.9171 Y8.0155  
G01 X-14.9684 Y8.1045  
G01 X-14.9950 Y8.2037  
G01 X-14.9950 Y13.0666 
G01 X-15.0204 Y13.2269 
G01 X-15.0204 Y14.7131 
G01 X-14.9945 Y14.8764 
G01 X-14.9434 Y15.0336 
G01 X-14.8684 Y15.1809 
G01 X-14.7712 Y15.3147 
G01 X-14.6543 Y15.4316 
G01 X-14.5205 Y15.5288 
G01 X-14.3732 Y15.6038 
G01 X-14.2160 Y15.6549 
G01 X-14.0527 Y15.6808 
G01 X-13.8873 Y15.6808 
G01 X-13.7240 Y15.6549 
G01 X-13.5668 Y15.6038 
G01 X-13.4195 Y15.5288 
G01 X-13.2857 Y15.4316 
G01 X-13.1688 Y15.3147 
G01 X-13.0716 Y15.1809 
G01 X-12.9966 Y15.0336 
G01 X-12.9455 Y14.8764 
G01 X-12.9196 Y14.7131 
G01 X-12.9196 Y13.2269 
G01 X-12.9450 Y13.0666 
G01 X-12.9450 Y8.2037  
G01 X-12.9716 Y8.1045  
G01 X-13.0229 Y8.0155  
G00 Z2.0000  
G00 X-15.4850 Y4.9790  
G01 Z-0.0500 F500   
G01 X-15.5244 Y4.7810  F500   
G01 X-15.6017 Y4.5945  
G01 X-15.7138 Y4.4266  
G01 X-15.8566 Y4.2838  
G01 X-16.0245 Y4.1717  
G01 X-16.2110 Y4.0944  
G01 X-16.4090 Y4.0550  
G01 X-34.3910 Y4.0550  
G01 X-34.5890 Y4.0944  
G01 X-34.7755 Y4.1717  
G01 X-34.9434 Y4.2838  
G01 X-35.0862 Y4.4266  
G01 X-35.1983 Y4.5945  
G01 X-35.2756 Y4.7810  
G01 X-35.3150 Y4.9790  
G01 X-35.3150 Y15.4850 
G01 X-38.4666 Y15.4850 
G01 X-38.6269 Y15.4596 
G01 X-40.1131 Y15.4596 
G01 X-40.2764 Y15.4855 
G01 X-40.4336 Y15.5366 
G01 X-40.5809 Y15.6116 
G01 X-40.7147 Y15.7088 
G01 X-40.8316 Y15.8257 
G01 X-40.9288 Y15.9595 
G01 X-41.0038 Y16.1068 
G01 X-41.0549 Y16.2640 
G01 X-41.0808 Y16.4273 
G01 X-41.0808 Y16.5927 
G01 X-41.0549 Y16.7560 
G01 X-41.0038 Y16.9132 
G01 X-40.9288 Y17.0605 
G01 X-40.8316 Y17.1943 
G01 X-40.7147 Y17.3112 
G01 X-40.5809 Y17.4084 
G01 X-40.4336 Y17.4834 
G01 X-40.2764 Y17.5345 
G01 X-40.1131 Y17.5604 
G01 X-38.6269 Y17.5604 
G01 X-38.4666 Y17.5350 
G01 X-34.1890 Y17.5350 
G01 X-33.9910 Y17.4956 
G01 X-33.8045 Y17.4183 
G01 X-33.6366 Y17.3062 
G01 X-33.4938 Y17.1634 
G01 X-33.3817 Y16.9955 
G01 X-33.3044 Y16.8090 
G01 X-33.2650 Y16.6110 
G01 X-33.2650 Y6.1050  
G01 X-17.5350 Y6.1050  
G01 X-17.5350 Y13.0666 
G01 X-17.5604 Y13.2269 
G01 X-17.5604 Y14.7131 
G01 X-17.5345 Y14.8764 
G01 X-17.4834 Y15.0336 
G01 X-17.4084 Y15.1809 
G01 X-17.3112 Y15.3147 
G01 X-17.1943 Y15.4316 
G01 X-17.0605 Y15.5288 
G01 X-16.9132 Y15.6038 
G01 X-16.7560 Y15.6549 
G01 X-16.5927 Y15.6808 
G01 X-16.4273 Y15.6808 
G01 X-16.2640 Y15.6549 
G01 X-16.1068 Y15.6038 
G01 X-15.9595 Y15.5288 
G01 X-15.8257 Y15.4316 
G01 X-15.7088 Y15.3147 
G01 X-15.6116 Y15.1809 
G01 X-15.5366 Y15.0336 
G01 X-15.4855 Y14.8764 
G01 X-15.4596 Y14.7131 
G01 X-15.4596 Y13.2269 
G01 X-15.4850 Y13.0666 
G01 X-15.4850 Y4.9790  
G00 Z2.0000  
G00 X-18.2538 Y6.9666  
G01 Z-0.0500 F500   
G01 X-18.3966 Y6.8238  F500   
G01 X-18.5645 Y6.7117  
G01 X-18.7510 Y6.6344  
G01 X-18.9490 Y6.5950  
G01 X-31.8510 Y6.5950  
G01 X-32.0490 Y6.6344  
G01 X-32.2355 Y6.7117  
G01 X-32.4034 Y6.8238  
G01 X-32.5462 Y6.9666  
G01 X-32.6583 Y7.1345  
G01 X-32.7356 Y7.3210  
G01 X-32.7750 Y7.5190  
G01 X-32.7750 Y14.6563 
G01 X-32.7484 Y14.7555 
G01 X-32.6971 Y14.8445 
G01 X-32.6245 Y14.9171 
G01 X-32.5355 Y14.9684 
G01 X-32.4363 Y14.9950 
G01 X-31.0637 Y14.9950 
G01 X-30.9645 Y14.9684 
G01 X-30.8755 Y14.9171 
G01 X-30.8029 Y14.8445 
G01 X-30.7516 Y14.7555 
G01 X-30.7250 Y14.6563 
G01 X-30.7250 Y8.6450  
G01 X-25.1550 Y8.6450  
G01 X-25.1550 Y13.0666 
G01 X-25.1804 Y13.2269 
G01 X-25.1804 Y14.7131 
G01 X-25.1545 Y14.8764 
G01 X-25.1034 Y15.0336 
G01 X-25.0284 Y15.1809 
G01 X-24.9312 Y15.3147 
G01 X-24.8143 Y15.4316 
G01 X-24.6805 Y15.5288 
G01 X-24.5332 Y15.6038 
G01 X-24.3760 Y15.6549 
G01 X-24.2127 Y15.6808 
G01 X-24.0473 Y15.6808 
G01 X-23.8840 Y15.6549 
G01 X-23.7268 Y15.6038 
G01 X-23.5795 Y15.5288 
G01 X-23.4457 Y15.4316 
G01 X-23.3288 Y15.3147 
G01 X-23.2316 Y15.1809 
G01 X-23.1566 Y15.0336 
G01 X-23.1055 Y14.8764 
G01 X-23.0796 Y14.7131 
G01 X-23.0796 Y13.2269 
G01 X-23.1050 Y13.0666 
G01 X-23.1050 Y8.6450  
G01 X-20.0750 Y8.6450  
G01 X-20.0750 Y13.0666 
G01 X-20.1004 Y13.2269 
G01 X-20.1004 Y14.7131 
G01 X-20.0745 Y14.8764 
G01 X-20.0234 Y15.0336 
G01 X-19.9484 Y15.1809 
G01 X-19.8512 Y15.3147 
G01 X-19.7343 Y15.4316 
G01 X-19.6005 Y15.5288 
G01 X-19.4532 Y15.6038 
G01 X-19.2960 Y15.6549 
G01 X-19.1327 Y15.6808 
G01 X-18.9673 Y15.6808 
G01 X-18.8040 Y15.6549 
G01 X-18.6468 Y15.6038 
G01 X-18.4995 Y15.5288 
G01 X-18.3657 Y15.4316 
G01 X-18.2488 Y15.3147 
G01 X-18.1516 Y15.1809 
G01 X-18.0766 Y15.0336 
G01 X-18.0255 Y14.8764 
G01 X-17.9996 Y14.7131 
G01 X-17.9996 Y13.2269 
G01 X-18.0250 Y13.0666 
G01 X-18.0250 Y7.5190  
G01 X-18.0644 Y7.3210  
G01 X-18.1417 Y7.1345  
G01 X-18.2538 Y6.9666  
G00 Z2.0000  
G00 X-20.6429 Y10.5555 
G01 Z-0.0500 F500   
G01 X-20.7155 Y10.4829 F500   
G01 X-20.8045 Y10.4316 
G01 X-20.9037 Y10.4050 
G01 X-22.2763 Y10.4050 
G01 X-22.3755 Y10.4316 
G01 X-22.4645 Y10.4829 
G01 X-22.5371 Y10.5555 
G01 X-22.5884 Y10.6445 
G01 X-22.6150 Y10.7437 
G01 X-22.6150 Y13.0666 
G01 X-22.6404 Y13.2269 
G01 X-22.6404 Y14.7131 
G01 X-22.6145 Y14.8764 
G01 X-22.5634 Y15.0336 
G01 X-22.4884 Y15.1809 
G01 X-22.3912 Y15.3147 
G01 X-22.2743 Y15.4316 
G01 X-22.1405 Y15.5288 
G01 X-21.9932 Y15.6038 
G01 X-21.8360 Y15.6549 
G01 X-21.6727 Y15.6808 
G01 X-21.5073 Y15.6808 
G01 X-21.3440 Y15.6549 
G01 X-21.1868 Y15.6038 
G01 X-21.0395 Y15.5288 
G01 X-20.9057 Y15.4316 
G01 X-20.7888 Y15.3147 
G01 X-20.6916 Y15.1809 
G01 X-20.6166 Y15.0336 
G01 X-20.5655 Y14.8764 
G01 X-20.5396 Y14.7131 
G01 X-20.5396 Y13.2269 
G01 X-20.5650 Y13.0666 
G01 X-20.5650 Y10.7437 
G01 X-20.5916 Y10.6445 
G01 X-20.6429 Y10.5555 
G00 Z2.0000  
G00 X-25.8688 Y12.6253 
G01 Z-0.0500 F500   
G01 X-25.9857 Y12.5084 F500   
G01 X-26.1195 Y12.4112 
G01 X-26.2668 Y12.3362 
G01 X-26.4240 Y12.2851 
G01 X-26.5873 Y12.2592 
G01 X-26.7527 Y12.2592 
G01 X-26.9160 Y12.2851 
G01 X-27.0732 Y12.3362 
G01 X-27.2205 Y12.4112 
G01 X-27.3543 Y12.5084 
G01 X-27.4712 Y12.6253 
G01 X-27.5684 Y12.7591 
G01 X-27.6434 Y12.9064 
G01 X-27.6560 Y12.9450 
G01 X-29.8963 Y12.9450 
G01 X-29.9955 Y12.9716 
G01 X-30.0845 Y13.0229 
G01 X-30.1571 Y13.0955 
G01 X-30.2084 Y13.1845 
G01 X-30.2350 Y13.2837 
G01 X-30.2350 Y14.6563 
G01 X-30.2084 Y14.7555 
G01 X-30.1571 Y14.8445 
G01 X-30.0845 Y14.9171 
G01 X-29.9955 Y14.9684 
G01 X-29.8963 Y14.9950 
G01 X-27.6560 Y14.9950 
G01 X-27.6434 Y15.0336 
G01 X-27.5684 Y15.1809 
G01 X-27.4712 Y15.3147 
G01 X-27.3543 Y15.4316 
G01 X-27.2205 Y15.5288 
G01 X-27.0732 Y15.6038 
G01 X-26.9160 Y15.6549 
G01 X-26.7527 Y15.6808 
G01 X-26.5873 Y15.6808 
G01 X-26.4240 Y15.6549 
G01 X-26.2668 Y15.6038 
G01 X-26.1195 Y15.5288 
G01 X-25.9857 Y15.4316 
G01 X-25.8688 Y15.3147 
G01 X-25.7716 Y15.1809 
G01 X-25.6966 Y15.0336 
G01 X-25.6455 Y14.8764 
G01 X-25.6196 Y14.7131 
G01 X-25.6196 Y13.2269 
G01 X-25.6455 Y13.0636 
G01 X-25.6966 Y12.9064 
G01 X-25.7716 Y12.7591 
G01 X-25.8688 Y12.6253 
G00 Z2.0000  
G00 X-28.7861 Y15.7136 
G01 Z-0.0500 F500   
G01 X-28.9481 Y15.6465 F500   
G01 X-29.1216 Y15.6120 
G01 X-29.2984 Y15.6120 
G01 X-29.4719 Y15.6465 
G01 X-29.6354 Y15.7142 
G01 X-29.7824 Y15.8125 
G01 X-31.9950 Y18.0250 
G01 X-32.4363 Y18.0250 
G01 X-32.5355 Y18.0516 
G01 X-32.6245 Y18.1029 
G01 X-32.6971 Y18.1755 
G01 X-32.7484 Y18.2645 
G01 X-32.7750 Y18.3637 
G01 X-32.7750 Y19.7363 
G01 X-32.7484 Y19.8355 
G01 X-32.6971 Y19.9245 
G01 X-32.6245 Y19.9971 
G01 X-32.5355 Y20.0484 
G01 X-32.4363 Y20.0750 
G01 X-31.0964 Y20.0750 
G01 X-31.8314 Y20.5650 
G01 X-32.4363 Y20.5650 
G01 X-32.5355 Y20.5916 
G01 X-32.6245 Y20.6429 
G01 X-32.6971 Y20.7155 
G01 X-32.7484 Y20.8045 
G01 X-32.7750 Y20.9037 
G01 X-32.7750 Y22.2763 
G01 X-32.7484 Y22.3755 
G01 X-32.6971 Y22.4645 
G01 X-32.6245 Y22.5371 
G01 X-32.5355 Y22.5884 
G01 X-32.4363 Y22.6150 
G01 X-31.0637 Y22.6150 
G01 X-30.9645 Y22.5884 
G01 X-30.8755 Y22.5371 
G01 X-30.8029 Y22.4645 
G01 X-30.7516 Y22.3755 
G01 X-30.7250 Y22.2763 
G01 X-30.7250 Y21.9859 
G01 X-27.5157 Y19.8464 
G01 X-17.3064 Y19.8464 
G01 X-17.3064 Y20.2405 
G01 X-17.3112 Y20.2453 
G01 X-17.4084 Y20.3791 
G01 X-17.4834 Y20.5264 
G01 X-17.5345 Y20.6836 
G01 X-17.5604 Y20.8469 
G01 X-17.5604 Y22.3331 
G01 X-17.5345 Y22.4964 
G01 X-17.4834 Y22.6536 
G01 X-17.4084 Y22.8009 
G01 X-17.3112 Y22.9347 
G01 X-17.1943 Y23.0516 
G01 X-17.0605 Y23.1488 
G01 X-16.9132 Y23.2238 
G01 X-16.7560 Y23.2749 
G01 X-16.5927 Y23.3008 
G01 X-16.4273 Y23.3008 
G01 X-16.2640 Y23.2749 
G01 X-16.1068 Y23.2238 
G01 X-15.9595 Y23.1488 
G01 X-15.8257 Y23.0516 
G01 X-15.7088 Y22.9347 
G01 X-15.6116 Y22.8009 
G01 X-15.5366 Y22.6536 
G01 X-15.4855 Y22.4964 
G01 X-15.4596 Y22.3331 
G01 X-15.4596 Y20.8469 
G01 X-15.4855 Y20.6836 
G01 X-15.5366 Y20.5264 
G01 X-15.6116 Y20.3791 
G01 X-15.7088 Y20.2453 
G01 X-15.7136 Y20.2405 
G01 X-15.7136 Y18.9716 
G01 X-15.7442 Y18.8177 
G01 X-15.8042 Y18.6728 
G01 X-15.8914 Y18.5423 
G01 X-16.0023 Y18.4314 
G01 X-16.1328 Y18.3442 
G01 X-16.2777 Y18.2842 
G01 X-16.4316 Y18.2536 
G01 X-27.5163 Y18.2536 
G01 X-27.6772 Y18.1868 
G01 X-27.8506 Y18.1521 
G01 X-28.0275 Y18.1519 
G01 X-28.2010 Y18.1862 
G01 X-28.3645 Y18.2538 
G01 X-30.7606 Y19.8511 
G01 X-30.7516 Y19.8355 
G01 X-30.7250 Y19.7363 
G01 X-30.7250 Y19.2950 
G01 X-28.7364 Y17.3064 
G01 X-14.7664 Y17.3064 
G01 X-14.7664 Y20.2405 
G01 X-14.7712 Y20.2453 
G01 X-14.8684 Y20.3791 
G01 X-14.9434 Y20.5264 
G01 X-14.9945 Y20.6836 
G01 X-15.0204 Y20.8469 
G01 X-15.0204 Y22.3331 
G01 X-14.9945 Y22.4964 
G01 X-14.9434 Y22.6536 
G01 X-14.8684 Y22.8009 
G01 X-14.7712 Y22.9347 
G01 X-14.6543 Y23.0516 
G01 X-14.5205 Y23.1488 
G01 X-14.3732 Y23.2238 
G01 X-14.2160 Y23.2749 
G01 X-14.0527 Y23.3008 
G01 X-13.8873 Y23.3008 
G01 X-13.7240 Y23.2749 
G01 X-13.5668 Y23.2238 
G01 X-13.4195 Y23.1488 
G01 X-13.2857 Y23.0516 
G01 X-13.1688 Y22.9347 
G01 X-13.0716 Y22.8009 
G01 X-12.9966 Y22.6536 
G01 X-12.9455 Y22.4964 
G01 X-12.9196 Y22.3331 
G01 X-12.9196 Y20.8469 
G01 X-12.9455 Y20.6836 
G01 X-12.9966 Y20.5264 
G01 X-13.0716 Y20.3791 
G01 X-13.1688 Y20.2453 
G01 X-13.1736 Y20.2405 
G01 X-13.1736 Y16.4316 
G01 X-13.2042 Y16.2777 
G01 X-13.2642 Y16.1328 
G01 X-13.3514 Y16.0023 
G01 X-13.4623 Y15.8914 
G01 X-13.5928 Y15.8042 
G01 X-13.7377 Y15.7442 
G01 X-13.8916 Y15.7136 
G01 X-28.7861 Y15.7136 
G00 Z2.0000  
G00 X-27.3543 Y20.1284 
G01 Z-0.0500 F500   
G01 X-27.4712 Y20.2453 F500   
G01 X-27.5684 Y20.3791 
G01 X-27.6434 Y20.5264 
G01 X-27.6945 Y20.6836 
G01 X-27.7204 Y20.8469 
G01 X-27.7204 Y22.3331 
G01 X-27.6988 Y22.4696 
G01 X-28.1850 Y22.2265 
G01 X-28.1850 Y22.1737 
G01 X-28.2116 Y22.0745 
G01 X-28.2629 Y21.9855 
G01 X-28.3355 Y21.9129 
G01 X-28.4245 Y21.8616 
G01 X-28.5237 Y21.8350 
G01 X-29.1736 Y21.8350 
G01 X-29.2380 Y21.8304 
G01 X-29.2744 Y21.8350 
G01 X-29.8963 Y21.8350 
G01 X-29.9955 Y21.8616 
G01 X-30.0845 Y21.9129 
G01 X-30.1571 Y21.9855 
G01 X-30.2084 Y22.0745 
G01 X-30.2350 Y22.1737 
G01 X-30.2350 Y22.8236 
G01 X-30.2396 Y22.8880 
G01 X-30.2350 Y22.9244 
G01 X-30.2350 Y23.5463 
G01 X-30.2084 Y23.6455 
G01 X-30.1571 Y23.7345 
G01 X-30.0845 Y23.8071 
G01 X-29.9955 Y23.8584 
G01 X-29.8963 Y23.8850 
G01 X-29.4520 Y23.8850 
G01 X-27.6950 Y24.7635 
G01 X-27.6950 Y28.1850 
G01 X-38.4666 Y28.1850 
G01 X-38.6269 Y28.1596 
G01 X-40.1131 Y28.1596 
G01 X-40.2734 Y28.1850 
G01 X-46.0866 Y28.1850 
G01 X-46.2469 Y28.1596 
G01 X-47.7331 Y28.1596 
G01 X-47.8964 Y28.1855 
G01 X-48.0536 Y28.2366 
G01 X-48.2009 Y28.3116 
G01 X-48.3347 Y28.4088 
G01 X-48.4516 Y28.5257 
G01 X-48.5488 Y28.6595 
G01 X-48.6238 Y28.8068 
G01 X-48.6749 Y28.9640 
G01 X-48.7008 Y29.1273 
G01 X-48.7008 Y29.2927 
G01 X-48.6749 Y29.4560 
G01 X-48.6238 Y29.6132 
G01 X-48.5488 Y29.7605 
G01 X-48.4516 Y29.8943 
G01 X-48.3347 Y30.0112 
G01 X-48.2009 Y30.1084 
G01 X-48.0536 Y30.1834 
G01 X-47.8964 Y30.2345 
G01 X-47.7331 Y30.2604 
G01 X-46.2469 Y30.2604 
G01 X-46.0866 Y30.2350 
G01 X-40.2734 Y30.2350 
G01 X-40.1131 Y30.2604 
G01 X-38.6269 Y30.2604 
G01 X-38.4666 Y30.2350 
G01 X-25.9837 Y30.2350 
G01 X-25.8845 Y30.2084 
G01 X-25.7955 Y30.1571 
G01 X-25.7229 Y30.0845 
G01 X-25.6716 Y29.9955 
G01 X-25.6450 Y29.8963 
G01 X-25.6450 Y24.1664 
G01 X-25.6404 Y24.1020 
G01 X-25.6450 Y24.0656 
G01 X-25.6450 Y22.4934 
G01 X-25.6196 Y22.3331 
G01 X-25.6196 Y20.8469 
G01 X-25.6455 Y20.6836 
G01 X-25.6966 Y20.5264 
G01 X-25.7716 Y20.3791 
G01 X-25.8688 Y20.2453 
G01 X-25.9857 Y20.1284 
G01 X-26.1195 Y20.0312 
G01 X-26.2668 Y19.9562 
G01 X-26.4240 Y19.9051 
G01 X-26.5873 Y19.8792 
G01 X-26.7527 Y19.8792 
G01 X-26.9160 Y19.9051 
G01 X-27.0732 Y19.9562 
G01 X-27.2205 Y20.0312 
G01 X-27.3543 Y20.1284 
G00 Z2.0000  
G00 X-24.8143 Y20.1284 
G01 Z-0.0500 F500   
G01 X-24.9312 Y20.2453 F500   
G01 X-25.0284 Y20.3791 
G01 X-25.1034 Y20.5264 
G01 X-25.1545 Y20.6836 
G01 X-25.1804 Y20.8469 
G01 X-25.1804 Y22.3331 
G01 X-25.1550 Y22.4934 
G01 X-25.1550 Y31.8510 
G01 X-25.1156 Y32.0490 
G01 X-25.0383 Y32.2355 
G01 X-24.9262 Y32.4034 
G01 X-24.7834 Y32.5462 
G01 X-23.5134 Y33.8162 
G01 X-23.3455 Y33.9283 
G01 X-23.1590 Y34.0056 
G01 X-22.9610 Y34.0450 
G01 X-12.5990 Y34.0450 
G01 X-12.4010 Y34.0056 
G01 X-12.2145 Y33.9283 
G01 X-12.0466 Y33.8162 
G01 X-11.9038 Y33.6734 
G01 X-11.7917 Y33.5055 
G01 X-11.7144 Y33.3190 
G01 X-11.6750 Y33.1210 
G01 X-11.6750 Y30.4978 
G01 X-11.6324 Y30.4142 
G01 X-11.5764 Y30.2418 
G01 X-11.5480 Y30.0627 
G01 X-11.5480 Y28.3573 
G01 X-11.5764 Y28.1782 
G01 X-11.6324 Y28.0058 
G01 X-11.7147 Y27.8442 
G01 X-11.8213 Y27.6975 
G01 X-11.9495 Y27.5693 
G01 X-12.0962 Y27.4627 
G01 X-12.2578 Y27.3804 
G01 X-12.4302 Y27.3244 
G01 X-12.6093 Y27.2960 
G01 X-12.7907 Y27.2960 
G01 X-12.9698 Y27.3244 
G01 X-13.1422 Y27.3804 
G01 X-13.3038 Y27.4627 
G01 X-13.4505 Y27.5693 
G01 X-13.5787 Y27.6975 
G01 X-13.6853 Y27.8442 
G01 X-13.7676 Y28.0058 
G01 X-13.8236 Y28.1782 
G01 X-13.8520 Y28.3573 
G01 X-13.8520 Y30.0627 
G01 X-13.8236 Y30.2418 
G01 X-13.7676 Y30.4142 
G01 X-13.7250 Y30.4978 
G01 X-13.7250 Y31.9950 
G01 X-22.4354 Y31.9950 
G01 X-23.1050 Y31.3254 
G01 X-23.1050 Y22.4934 
G01 X-23.0796 Y22.3331 
G01 X-23.0796 Y20.8469 
G01 X-23.1055 Y20.6836 
G01 X-23.1566 Y20.5264 
G01 X-23.2316 Y20.3791 
G01 X-23.3288 Y20.2453 
G01 X-23.4457 Y20.1284 
G01 X-23.5795 Y20.0312 
G01 X-23.7268 Y19.9562 
G01 X-23.8840 Y19.9051 
G01 X-24.0473 Y19.8792 
G01 X-24.2127 Y19.8792 
G01 X-24.3760 Y19.9051 
G01 X-24.5332 Y19.9562 
G01 X-24.6805 Y20.0312 
G01 X-24.8143 Y20.1284 
G00 Z2.0000  
G00 X-22.2743 Y20.1284 
G01 Z-0.0500 F500   
G01 X-22.3912 Y20.2453 F500   
G01 X-22.4884 Y20.3791 
G01 X-22.5634 Y20.5264 
G01 X-22.6145 Y20.6836 
G01 X-22.6404 Y20.8469 
G01 X-22.6404 Y22.3331 
G01 X-22.6150 Y22.4934 
G01 X-22.6150 Y27.3563 
G01 X-22.5884 Y27.4555 
G01 X-22.5371 Y27.5445 
G01 X-22.4645 Y27.6171 
G01 X-22.3755 Y27.6684 
G01 X-22.2763 Y27.6950 
G01 X-20.9037 Y27.6950 
G01 X-20.8045 Y27.6684 
G01 X-20.7155 Y27.6171 
G01 X-20.6429 Y27.5445 
G01 X-20.5916 Y27.4555 
G01 X-20.5650 Y27.3563 
G01 X-20.5650 Y22.4934 
G01 X-20.5396 Y22.3331 
G01 X-20.5396 Y20.8469 
G01 X-20.5655 Y20.6836 
G01 X-20.6166 Y20.5264 
G01 X-20.6916 Y20.3791 
G01 X-20.7888 Y20.2453 
G01 X-20.9057 Y20.1284 
G01 X-21.0395 Y20.0312 
G01 X-21.1868 Y19.9562 
G01 X-21.3440 Y19.9051 
G01 X-21.5073 Y19.8792 
G01 X-21.6727 Y19.8792 
G01 X-21.8360 Y19.9051 
G01 X-21.9932 Y19.9562 
G01 X-22.1405 Y20.0312 
G01 X-22.2743 Y20.1284 
G00 Z2.0000  
G00 X-19.7343 Y20.1284 
G01 Z-0.0500 F500   
G01 X-19.8512 Y20.2453 F500   
G01 X-19.9484 Y20.3791 
G01 X-20.0234 Y20.5264 
G01 X-20.0745 Y20.6836 
G01 X-20.1004 Y20.8469 
G01 X-20.1004 Y22.3331 
G01 X-20.0750 Y22.4934 
G01 X-20.0750 Y24.8163 
G01 X-20.0484 Y24.9155 
G01 X-19.9971 Y25.0045 
G01 X-19.9245 Y25.0771 
G01 X-19.8355 Y25.1284 
G01 X-19.7363 Y25.1550 
G01 X-18.3637 Y25.1550 
G01 X-18.2645 Y25.1284 
G01 X-18.1755 Y25.0771 
G01 X-18.1029 Y25.0045 
G01 X-18.0516 Y24.9155 
G01 X-18.0250 Y24.8163 
G01 X-18.0250 Y22.4934 
G01 X-17.9996 Y22.3331 
G01 X-17.9996 Y20.8469 
G01 X-18.0255 Y20.6836 
G01 X-18.0766 Y20.5264 
G01 X-18.1516 Y20.3791 
G01 X-18.2488 Y20.2453 
G01 X-18.3657 Y20.1284 
G01 X-18.4995 Y20.0312 
G01 X-18.6468 Y19.9562 
G01 X-18.8040 Y19.9051 
G01 X-18.9673 Y19.8792 
G01 X-19.1327 Y19.8792 
G01 X-19.2960 Y19.9051 
G01 X-19.4532 Y19.9562 
G01 X-19.6005 Y20.0312 
G01 X-19.7343 Y20.1284 
G00 Z2.0000  
G00 X-18.5305 Y27.5693 
G01 Z-0.0500 F500   
G01 X-18.6587 Y27.6975 F500   
G01 X-18.7653 Y27.8442 
G01 X-18.8476 Y28.0058 
G01 X-18.9036 Y28.1782 
G01 X-18.9047 Y28.1850 
G01 X-21.0063 Y28.1850 
G01 X-21.1055 Y28.2116 
G01 X-21.1945 Y28.2629 
G01 X-21.2671 Y28.3355 
G01 X-21.3184 Y28.4245 
G01 X-21.3450 Y28.5237 
G01 X-21.3450 Y29.8963 
G01 X-21.3184 Y29.9955 
G01 X-21.2671 Y30.0845 
G01 X-21.1945 Y30.1571 
G01 X-21.1055 Y30.2084 
G01 X-21.0063 Y30.2350 
G01 X-18.9047 Y30.2350 
G01 X-18.9036 Y30.2418 
G01 X-18.8476 Y30.4142 
G01 X-18.7653 Y30.5758 
G01 X-18.6587 Y30.7225 
G01 X-18.5305 Y30.8507 
G01 X-18.3838 Y30.9573 
G01 X-18.2222 Y31.0396 
G01 X-18.0498 Y31.0956 
G01 X-17.8707 Y31.1240 
G01 X-17.6893 Y31.1240 
G01 X-17.5102 Y31.0956 
G01 X-17.3378 Y31.0396 
G01 X-17.1762 Y30.9573 
G01 X-17.0295 Y30.8507 
G01 X-16.9013 Y30.7225 
G01 X-16.7947 Y30.5758 
G01 X-16.7124 Y30.4142 
G01 X-16.6564 Y30.2418 
G01 X-16.6280 Y30.0627 
G01 X-16.6280 Y28.3573 
G01 X-16.6564 Y28.1782 
G01 X-16.7124 Y28.0058 
G01 X-16.7947 Y27.8442 
G01 X-16.9013 Y27.6975 
G01 X-17.0295 Y27.5693 
G01 X-17.1762 Y27.4627 
G01 X-17.3378 Y27.3804 
G01 X-17.5102 Y27.3244 
G01 X-17.6893 Y27.2960 
G01 X-17.8707 Y27.2960 
G01 X-18.0498 Y27.3244 
G01 X-18.2222 Y27.3804 
G01 X-18.3838 Y27.4627 
G01 X-18.5305 Y27.5693 
G00 Z2.0000  
G00 X-11.1850 Y27.9222 
G01 Z-0.0500 F500   
G01 X-11.2276 Y28.0058 F500   
G01 X-11.2836 Y28.1782 
G01 X-11.3120 Y28.3573 
G01 X-11.3120 Y30.0627 
G01 X-11.2836 Y30.2418 
G01 X-11.2276 Y30.4142 
G01 X-11.1453 Y30.5758 
G01 X-11.0387 Y30.7225 
G01 X-10.9105 Y30.8507 
G01 X-10.7638 Y30.9573 
G01 X-10.6022 Y31.0396 
G01 X-10.4298 Y31.0956 
G01 X-10.2507 Y31.1240 
G01 X-10.0693 Y31.1240 
G01 X-9.8902 Y31.0956 
G01 X-9.7178 Y31.0396 
G01 X-9.5562 Y30.9573 
G01 X-9.4095 Y30.8507 
G01 X-9.2813 Y30.7225 
G01 X-9.1747 Y30.5758 
G01 X-9.0924 Y30.4142 
G01 X-9.0364 Y30.2418 
G01 X-9.0080 Y30.0627 
G01 X-9.0080 Y28.3573 
G01 X-9.0364 Y28.1782 
G01 X-9.0924 Y28.0058 
G01 X-9.1350 Y27.9222 
G01 X-9.1350 Y27.0946 
G01 X-5.6966 Y23.6562 
G01 X-5.5538 Y23.5134 
G01 X-5.4417 Y23.3455 
G01 X-5.3644 Y23.1590 
G01 X-5.3250 Y22.9610 
G01 X-5.3250 Y9.4737  
G01 X-5.3516 Y9.3745  
G01 X-5.4029 Y9.2855  
G01 X-5.4755 Y9.2129  
G01 X-5.5645 Y9.1616  
G01 X-5.6637 Y9.1350  
G01 X-7.0363 Y9.1350  
G01 X-7.1355 Y9.1616  
G01 X-7.2245 Y9.2129  
G01 X-7.2971 Y9.2855  
G01 X-7.3484 Y9.3745  
G01 X-7.3750 Y9.4737  
G01 X-7.3750 Y22.4354 
G01 X-10.9562 Y26.0166 
G01 X-11.0683 Y26.1845 
G01 X-11.1456 Y26.3710 
G01 X-11.1850 Y26.5690 
G01 X-11.1850 Y27.9222 
G00 Z2.0000  
G00 X-8.6450 Y27.9222 
G01 Z-0.0500 F500   
G01 X-8.6876 Y28.0058 F500   
G01 X-8.7436 Y28.1782 
G01 X-8.7720 Y28.3573 
G01 X-8.7720 Y30.0627 
G01 X-8.7436 Y30.2418 
G01 X-8.6876 Y30.4142 
G01 X-8.6053 Y30.5758 
G01 X-8.4987 Y30.7225 
G01 X-8.3705 Y30.8507 
G01 X-8.2238 Y30.9573 
G01 X-8.0622 Y31.0396 
G01 X-7.8898 Y31.0956 
G01 X-7.7107 Y31.1240 
G01 X-7.5293 Y31.1240 
G01 X-7.3502 Y31.0956 
G01 X-7.1778 Y31.0396 
G01 X-7.0162 Y30.9573 
G01 X-6.8695 Y30.8507 
G01 X-6.7413 Y30.7225 
G01 X-6.6347 Y30.5758 
G01 X-6.5524 Y30.4142 
G01 X-6.4964 Y30.2418 
G01 X-6.4680 Y30.0627 
G01 X-6.4680 Y28.3573 
G01 X-6.4844 Y28.2539 
G01 X-3.1566 Y24.9262 
G01 X-3.0138 Y24.7834 
G01 X-2.9017 Y24.6155 
G01 X-2.8244 Y24.4290 
G01 X-2.7850 Y24.2310 
G01 X-2.7850 Y8.2037  
G01 X-2.8116 Y8.1045  
G01 X-2.8629 Y8.0155  
G01 X-2.9355 Y7.9429  
G01 X-3.0245 Y7.8916  
G01 X-3.1237 Y7.8650  
G01 X-4.4963 Y7.8650  
G01 X-4.5955 Y7.8916  
G01 X-4.6845 Y7.9429  
G01 X-4.7571 Y8.0155  
G01 X-4.8084 Y8.1045  
G01 X-4.8350 Y8.2037  
G01 X-4.8350 Y23.7054 
G01 X-8.4162 Y27.2866 
G01 X-8.5283 Y27.4545 
G01 X-8.6056 Y27.6410 
G01 X-8.6450 Y27.8390 
G01 X-8.6450 Y27.9222 
G00 Z2.0000  
G00 X-28.3355 Y27.6171 
G01 Z-0.0500 F500   
G01 X-28.2629 Y27.5445 F500   
G01 X-28.2116 Y27.4555 
G01 X-28.1850 Y27.3563 
G01 X-28.1850 Y25.9837 
G01 X-28.2116 Y25.8845 
G01 X-28.2629 Y25.7955 
G01 X-28.3355 Y25.7229 
G01 X-28.4245 Y25.6716 
G01 X-28.5237 Y25.6450 
G01 X-38.4666 Y25.6450 
G01 X-38.6269 Y25.6196 
G01 X-40.1131 Y25.6196 
G01 X-40.2764 Y25.6455 
G01 X-40.4336 Y25.6966 
G01 X-40.5809 Y25.7716 
G01 X-40.7147 Y25.8688 
G01 X-40.8316 Y25.9857 
G01 X-40.9288 Y26.1195 
G01 X-41.0038 Y26.2668 
G01 X-41.0549 Y26.4240 
G01 X-41.0808 Y26.5873 
G01 X-41.0808 Y26.7527 
G01 X-41.0549 Y26.9160 
G01 X-41.0038 Y27.0732 
G01 X-40.9288 Y27.2205 
G01 X-40.8316 Y27.3543 
G01 X-40.7147 Y27.4712 
G01 X-40.5809 Y27.5684 
G01 X-40.4336 Y27.6434 
G01 X-40.2764 Y27.6945 
G01 X-40.1131 Y27.7204 
G01 X-38.6269 Y27.7204 
G01 X-38.4666 Y27.6950 
G01 X-28.5237 Y27.6950 
G01 X-28.4245 Y27.6684 
G01 X-28.3355 Y27.6171 
G00 Z2.0000  
G00 X-35.9555 Y25.0771 
G01 Z-0.0500 F500   
G01 X-35.8829 Y25.0045 F500   
G01 X-35.8316 Y24.9155 
G01 X-35.8050 Y24.8163 
G01 X-35.8050 Y23.4437 
G01 X-35.8316 Y23.3445 
G01 X-35.8829 Y23.2555 
G01 X-35.9555 Y23.1829 
G01 X-36.0445 Y23.1316 
G01 X-36.1437 Y23.1050 
G01 X-38.4666 Y23.1050 
G01 X-38.6269 Y23.0796 
G01 X-40.1131 Y23.0796 
G01 X-40.2764 Y23.1055 
G01 X-40.4336 Y23.1566 
G01 X-40.5809 Y23.2316 
G01 X-40.7147 Y23.3288 
G01 X-40.8316 Y23.4457 
G01 X-40.9288 Y23.5795 
G01 X-41.0038 Y23.7268 
G01 X-41.0549 Y23.8840 
G01 X-41.0808 Y24.0473 
G01 X-41.0808 Y24.2127 
G01 X-41.0549 Y24.3760 
G01 X-41.0038 Y24.5332 
G01 X-40.9288 Y24.6805 
G01 X-40.8316 Y24.8143 
G01 X-40.7147 Y24.9312 
G01 X-40.5809 Y25.0284 
G01 X-40.4336 Y25.1034 
G01 X-40.2764 Y25.1545 
G01 X-40.1131 Y25.1804 
G01 X-38.6269 Y25.1804 
G01 X-38.4666 Y25.1550 
G01 X-36.1437 Y25.1550 
G01 X-36.0445 Y25.1284 
G01 X-35.9555 Y25.0771 
G00 Z2.0000  
G00 X-35.9555 Y22.5371 
G01 Z-0.0500 F500   
G01 X-35.8829 Y22.4645 F500   
G01 X-35.8316 Y22.3755 
G01 X-35.8050 Y22.2763 
G01 X-35.8050 Y20.9037 
G01 X-35.8316 Y20.8045 
G01 X-35.8829 Y20.7155 
G01 X-35.9555 Y20.6429 
G01 X-36.0445 Y20.5916 
G01 X-36.1437 Y20.5650 
G01 X-38.4666 Y20.5650 
G01 X-38.6269 Y20.5396 
G01 X-40.1131 Y20.5396 
G01 X-40.2764 Y20.5655 
G01 X-40.4336 Y20.6166 
G01 X-40.5809 Y20.6916 
G01 X-40.7147 Y20.7888 
G01 X-40.8316 Y20.9057 
G01 X-40.9288 Y21.0395 
G01 X-41.0038 Y21.1868 
G01 X-41.0549 Y21.3440 
G01 X-41.0808 Y21.5073 
G01 X-41.0808 Y21.6727 
G01 X-41.0549 Y21.8360 
G01 X-41.0038 Y21.9932 
G01 X-40.9288 Y22.1405 
G01 X-40.8316 Y22.2743 
G01 X-40.7147 Y22.3912 
G01 X-40.5809 Y22.4884 
G01 X-40.4336 Y22.5634 
G01 X-40.2764 Y22.6145 
G01 X-40.1131 Y22.6404 
G01 X-38.6269 Y22.6404 
G01 X-38.4666 Y22.6150 
G01 X-36.1437 Y22.6150 
G01 X-36.0445 Y22.5884 
G01 X-35.9555 Y22.5371 
G00 Z2.0000  
G00 X-35.9555 Y19.9971 
G01 Z-0.0500 F500   
G01 X-35.8829 Y19.9245 F500   
G01 X-35.8316 Y19.8355 
G01 X-35.8050 Y19.7363 
G01 X-35.8050 Y18.3637 
G01 X-35.8316 Y18.2645 
G01 X-35.8829 Y18.1755 
G01 X-35.9555 Y18.1029 
G01 X-36.0445 Y18.0516 
G01 X-36.1437 Y18.0250 
G01 X-38.4666 Y18.0250 
G01 X-38.6269 Y17.9996 
G01 X-40.1131 Y17.9996 
G01 X-40.2764 Y18.0255 
G01 X-40.4336 Y18.0766 
G01 X-40.5809 Y18.1516 
G01 X-40.7147 Y18.2488 
G01 X-40.8316 Y18.3657 
G01 X-40.9288 Y18.4995 
G01 X-41.0038 Y18.6468 
G01 X-41.0549 Y18.8040 
G01 X-41.0808 Y18.9673 
G01 X-41.0808 Y19.1327 
G01 X-41.0549 Y19.2960 
G01 X-41.0038 Y19.4532 
G01 X-40.9288 Y19.6005 
G01 X-40.8316 Y19.7343 
G01 X-40.7147 Y19.8512 
G01 X-40.5809 Y19.9484 
G01 X-40.4336 Y20.0234 
G01 X-40.2764 Y20.0745 
G01 X-40.1131 Y20.1004 
G01 X-38.6269 Y20.1004 
G01 X-38.4666 Y20.0750 
G01 X-36.1437 Y20.0750 
G01 X-36.0445 Y20.0484 
G01 X-35.9555 Y19.9971 
G00 Z2.0000  
G00 X-35.9555 Y14.9171 
G01 Z-0.0500 F500   
G01 X-35.8829 Y14.8445 F500   
G01 X-35.8316 Y14.7555 
G01 X-35.8050 Y14.6563 
G01 X-35.8050 Y13.2837 
G01 X-35.8316 Y13.1845 
G01 X-35.8829 Y13.0955 
G01 X-35.9555 Y13.0229 
G01 X-36.0445 Y12.9716 
G01 X-36.1437 Y12.9450 
G01 X-38.4666 Y12.9450 
G01 X-38.6269 Y12.9196 
G01 X-40.1131 Y12.9196 
G01 X-40.2764 Y12.9455 
G01 X-40.4336 Y12.9966 
G01 X-40.5809 Y13.0716 
G01 X-40.7147 Y13.1688 
G01 X-40.8316 Y13.2857 
G01 X-40.9288 Y13.4195 
G01 X-41.0038 Y13.5668 
G01 X-41.0549 Y13.7240 
G01 X-41.0808 Y13.8873 
G01 X-41.0808 Y14.0527 
G01 X-41.0549 Y14.2160 
G01 X-41.0038 Y14.3732 
G01 X-40.9288 Y14.5205 
G01 X-40.8316 Y14.6543 
G01 X-40.7147 Y14.7712 
G01 X-40.5809 Y14.8684 
G01 X-40.4336 Y14.9434 
G01 X-40.2764 Y14.9945 
G01 X-40.1131 Y15.0204 
G01 X-38.6269 Y15.0204 
G01 X-38.4666 Y14.9950 
G01 X-36.1437 Y14.9950 
G01 X-36.0445 Y14.9684 
G01 X-35.9555 Y14.9171 
G00 Z2.0000  
G00 X-35.9555 Y12.3771 
G01 Z-0.0500 F500   
G01 X-35.8829 Y12.3045 F500   
G01 X-35.8316 Y12.2155 
G01 X-35.8050 Y12.1163 
G01 X-35.8050 Y10.7437 
G01 X-35.8316 Y10.6445 
G01 X-35.8829 Y10.5555 
G01 X-35.9555 Y10.4829 
G01 X-36.0445 Y10.4316 
G01 X-36.1437 Y10.4050 
G01 X-38.4666 Y10.4050 
G01 X-38.6269 Y10.3796 
G01 X-40.1131 Y10.3796 
G01 X-40.2764 Y10.4055 
G01 X-40.4336 Y10.4566 
G01 X-40.5809 Y10.5316 
G01 X-40.7147 Y10.6288 
G01 X-40.8316 Y10.7457 
G01 X-40.9288 Y10.8795 
G01 X-41.0038 Y11.0268 
G01 X-41.0549 Y11.1840 
G01 X-41.0808 Y11.3473 
G01 X-41.0808 Y11.5127 
G01 X-41.0549 Y11.6760 
G01 X-41.0038 Y11.8332 
G01 X-40.9288 Y11.9805 
G01 X-40.8316 Y12.1143 
G01 X-40.7147 Y12.2312 
G01 X-40.5809 Y12.3284 
G01 X-40.4336 Y12.4034 
G01 X-40.2764 Y12.4545 
G01 X-40.1131 Y12.4804 
G01 X-38.6269 Y12.4804 
G01 X-38.4666 Y12.4550 
G01 X-36.1437 Y12.4550 
G01 X-36.0445 Y12.4284 
G01 X-35.9555 Y12.3771 
G00 Z2.0000  
G00 X-35.9555 Y9.8371  
G01 Z-0.0500 F500   
G01 X-35.8829 Y9.7645  F500   
G01 X-35.8316 Y9.6755  
G01 X-35.8050 Y9.5763  
G01 X-35.8050 Y8.2037  
G01 X-35.8316 Y8.1045  
G01 X-35.8829 Y8.0155  
G01 X-35.9555 Y7.9429  
G01 X-36.0445 Y7.8916  
G01 X-36.1437 Y7.8650  
G01 X-38.4666 Y7.8650  
G01 X-38.6269 Y7.8396  
G01 X-40.1131 Y7.8396  
G01 X-40.2734 Y7.8650  
G01 X-40.7410 Y7.8650  
G01 X-40.9390 Y7.9044  
G01 X-41.1255 Y7.9817  
G01 X-41.2934 Y8.0938  
G01 X-41.4362 Y8.2366  
G01 X-41.5483 Y8.4045  
G01 X-41.6256 Y8.5910  
G01 X-41.6650 Y8.7890  
G01 X-41.6650 Y8.9910  
G01 X-41.6256 Y9.1890  
G01 X-41.5483 Y9.3755  
G01 X-41.4362 Y9.5434  
G01 X-41.2934 Y9.6862  
G01 X-41.1255 Y9.7983  
G01 X-40.9390 Y9.8756  
G01 X-40.7410 Y9.9150  
G01 X-40.2734 Y9.9150  
G01 X-40.1131 Y9.9404  
G01 X-38.6269 Y9.9404  
G01 X-38.4666 Y9.9150  
G01 X-36.1437 Y9.9150  
G01 X-36.0445 Y9.8884  
G01 X-35.9555 Y9.8371  
G00 Z2.0000  
G00 X-35.9555 Y7.2971  
G01 Z-0.0500 F500   
G01 X-35.8829 Y7.2245  F500   
G01 X-35.8316 Y7.1355  
G01 X-35.8050 Y7.0363  
G01 X-35.8050 Y5.6637  
G01 X-35.8316 Y5.5645  
G01 X-35.8829 Y5.4755  
G01 X-35.9555 Y5.4029  
G01 X-36.0445 Y5.3516  
G01 X-36.1437 Y5.3250  
G01 X-38.4666 Y5.3250  
G01 X-38.6269 Y5.2996  
G01 X-40.1131 Y5.2996  
G01 X-40.2764 Y5.3255  
G01 X-40.4336 Y5.3766  
G01 X-40.5809 Y5.4516  
G01 X-40.7147 Y5.5488  
G01 X-40.8316 Y5.6657  
G01 X-40.9288 Y5.7995  
G01 X-41.0038 Y5.9468  
G01 X-41.0549 Y6.1040  
G01 X-41.0808 Y6.2673  
G01 X-41.0808 Y6.4327  
G01 X-41.0549 Y6.5960  
G01 X-41.0038 Y6.7532  
G01 X-40.9288 Y6.9005  
G01 X-40.8316 Y7.0343  
G01 X-40.7147 Y7.1512  
G01 X-40.5809 Y7.2484  
G01 X-40.4336 Y7.3234  
G01 X-40.2764 Y7.3745  
G01 X-40.1131 Y7.4004  
G01 X-38.6269 Y7.4004  
G01 X-38.4666 Y7.3750  
G01 X-36.1437 Y7.3750  
G01 X-36.0445 Y7.3484  
G01 X-35.9555 Y7.2971  
G00 Z2.0000  
G00 X-45.5284 Y8.2057  
G01 Z-0.0500 F500   
G01 X-45.6453 Y8.0888  F500   
G01 X-45.7791 Y7.9916  
G01 X-45.9264 Y7.9166  
G01 X-46.0836 Y7.8655  
G01 X-46.2469 Y7.8396  
G01 X-47.7331 Y7.8396  
G01 X-47.8934 Y7.8650  
G01 X-49.5122 Y7.8650  
G01 X-49.5958 Y7.8224  
G01 X-49.7682 Y7.7664  
G01 X-49.9473 Y7.7380  
G01 X-51.6527 Y7.7380  
G01 X-51.8318 Y7.7664  
G01 X-52.0042 Y7.8224  
G01 X-52.1658 Y7.9047  
G01 X-52.3125 Y8.0113  
G01 X-52.4407 Y8.1395  
G01 X-52.5473 Y8.2862  
G01 X-52.6296 Y8.4478  
G01 X-52.6856 Y8.6202  
G01 X-52.7140 Y8.7993  
G01 X-52.7140 Y8.9807  
G01 X-52.6856 Y9.1598  
G01 X-52.6296 Y9.3322  
G01 X-52.5473 Y9.4938  
G01 X-52.4407 Y9.6405  
G01 X-52.3125 Y9.7687  
G01 X-52.1658 Y9.8753  
G01 X-52.0042 Y9.9576  
G01 X-51.8318 Y10.0136 
G01 X-51.6527 Y10.0420 
G01 X-49.9473 Y10.0420 
G01 X-49.7682 Y10.0136 
G01 X-49.5958 Y9.9576  
G01 X-49.5122 Y9.9150  
G01 X-47.8934 Y9.9150  
G01 X-47.7331 Y9.9404  
G01 X-46.2469 Y9.9404  
G01 X-46.0836 Y9.9145  
G01 X-45.9264 Y9.8634  
G01 X-45.7791 Y9.7884  
G01 X-45.6453 Y9.6912  
G01 X-45.5284 Y9.5743  
G01 X-45.4312 Y9.4405  
G01 X-45.3562 Y9.2932  
G01 X-45.3051 Y9.1360  
G01 X-45.2792 Y8.9727  
G01 X-45.2792 Y8.8073  
G01 X-45.3051 Y8.6440  
G01 X-45.3562 Y8.4868  
G01 X-45.4312 Y8.3395  
G01 X-45.5284 Y8.2057  
G00 Z2.0000  
G00 X-45.5284 Y10.7457 
G01 Z-0.0500 F500   
G01 X-45.6453 Y10.6288 F500   
G01 X-45.7791 Y10.5316 
G01 X-45.9264 Y10.4566 
G01 X-46.0836 Y10.4055 
G01 X-46.2469 Y10.3796 
G01 X-47.7331 Y10.3796 
G01 X-47.8934 Y10.4050 
G01 X-49.5122 Y10.4050 
G01 X-49.5958 Y10.3624 
G01 X-49.7682 Y10.3064 
G01 X-49.9473 Y10.2780 
G01 X-51.6527 Y10.2780 
G01 X-51.8318 Y10.3064 
G01 X-52.0042 Y10.3624 
G01 X-52.1658 Y10.4447 
G01 X-52.3125 Y10.5513 
G01 X-52.4407 Y10.6795 
G01 X-52.5473 Y10.8262 
G01 X-52.6296 Y10.9878 
G01 X-52.6856 Y11.1602 
G01 X-52.7140 Y11.3393 
G01 X-52.7140 Y11.5207 
G01 X-52.6856 Y11.6998 
G01 X-52.6296 Y11.8722 
G01 X-52.5473 Y12.0338 
G01 X-52.4407 Y12.1805 
G01 X-52.3125 Y12.3087 
G01 X-52.1658 Y12.4153 
G01 X-52.0042 Y12.4976 
G01 X-51.8318 Y12.5536 
G01 X-51.6527 Y12.5820 
G01 X-49.9473 Y12.5820 
G01 X-49.7682 Y12.5536 
G01 X-49.5958 Y12.4976 
G01 X-49.5122 Y12.4550 
G01 X-47.8934 Y12.4550 
G01 X-47.7331 Y12.4804 
G01 X-46.2469 Y12.4804 
G01 X-46.0836 Y12.4545 
G01 X-45.9264 Y12.4034 
G01 X-45.7791 Y12.3284 
G01 X-45.6453 Y12.2312 
G01 X-45.5284 Y12.1143 
G01 X-45.4312 Y11.9805 
G01 X-45.3562 Y11.8332 
G01 X-45.3051 Y11.6760 
G01 X-45.2792 Y11.5127 
G01 X-45.2792 Y11.3473 
G01 X-45.3051 Y11.1840 
G01 X-45.3562 Y11.0268 
G01 X-45.4312 Y10.8795 
G01 X-45.5284 Y10.7457 
G00 Z2.0000  
G00 X-45.5284 Y13.2857 
G01 Z-0.0500 F500   
G01 X-45.6453 Y13.1688 F500   
G01 X-45.7791 Y13.0716 
G01 X-45.9264 Y12.9966 
G01 X-46.0836 Y12.9455 
G01 X-46.2469 Y12.9196 
G01 X-47.7331 Y12.9196 
G01 X-47.8934 Y12.9450 
G01 X-49.5122 Y12.9450 
G01 X-49.5958 Y12.9024 
G01 X-49.7682 Y12.8464 
G01 X-49.9473 Y12.8180 
G01 X-51.6527 Y12.8180 
G01 X-51.8318 Y12.8464 
G01 X-52.0042 Y12.9024 
G01 X-52.1658 Y12.9847 
G01 X-52.3125 Y13.0913 
G01 X-52.4407 Y13.2195 
G01 X-52.5473 Y13.3662 
G01 X-52.6296 Y13.5278 
G01 X-52.6856 Y13.7002 
G01 X-52.7140 Y13.8793 
G01 X-52.7140 Y14.0607 
G01 X-52.6856 Y14.2398 
G01 X-52.6296 Y14.4122 
G01 X-52.5473 Y14.5738 
G01 X-52.4407 Y14.7205 
G01 X-52.3125 Y14.8487 
G01 X-52.1658 Y14.9553 
G01 X-52.0042 Y15.0376 
G01 X-51.8318 Y15.0936 
G01 X-51.6527 Y15.1220 
G01 X-49.9473 Y15.1220 
G01 X-49.7682 Y15.0936 
G01 X-49.5958 Y15.0376 
G01 X-49.5122 Y14.9950 
G01 X-47.8934 Y14.9950 
G01 X-47.7331 Y15.0204 
G01 X-46.2469 Y15.0204 
G01 X-46.0836 Y14.9945 
G01 X-45.9264 Y14.9434 
G01 X-45.7791 Y14.8684 
G01 X-45.6453 Y14.7712 
G01 X-45.5284 Y14.6543 
G01 X-45.4312 Y14.5205 
G01 X-45.3562 Y14.3732 
G01 X-45.3051 Y14.2160 
G01 X-45.2792 Y14.0527 
G01 X-45.2792 Y13.8873 
G01 X-45.3051 Y13.7240 
G01 X-45.3562 Y13.5668 
G01 X-45.4312 Y13.4195 
G01 X-45.5284 Y13.2857 
G00 Z2.0000  
G00 X-45.5284 Y15.8257 
G01 Z-0.0500 F500   
G01 X-45.6453 Y15.7088 F500   
G01 X-45.7791 Y15.6116 
G01 X-45.9264 Y15.5366 
G01 X-46.0836 Y15.4855 
G01 X-46.2469 Y15.4596 
G01 X-47.7331 Y15.4596 
G01 X-47.8934 Y15.4850 
G01 X-49.5122 Y15.4850 
G01 X-49.5958 Y15.4424 
G01 X-49.7682 Y15.3864 
G01 X-49.9473 Y15.3580 
G01 X-51.6527 Y15.3580 
G01 X-51.8318 Y15.3864 
G01 X-52.0042 Y15.4424 
G01 X-52.1658 Y15.5247 
G01 X-52.3125 Y15.6313 
G01 X-52.4407 Y15.7595 
G01 X-52.5473 Y15.9062 
G01 X-52.6296 Y16.0678 
G01 X-52.6856 Y16.2402 
G01 X-52.7140 Y16.4193 
G01 X-52.7140 Y16.6007 
G01 X-52.6856 Y16.7798 
G01 X-52.6296 Y16.9522 
G01 X-52.5473 Y17.1138 
G01 X-52.4407 Y17.2605 
G01 X-52.3125 Y17.3887 
G01 X-52.1658 Y17.4953 
G01 X-52.0042 Y17.5776 
G01 X-51.8318 Y17.6336 
G01 X-51.6527 Y17.6620 
G01 X-49.9473 Y17.6620 
G01 X-49.7682 Y17.6336 
G01 X-49.5958 Y17.5776 
G01 X-49.5122 Y17.5350 
G01 X-47.8934 Y17.5350 
G01 X-47.7331 Y17.5604 
G01 X-46.2469 Y17.5604 
G01 X-46.0836 Y17.5345 
G01 X-45.9264 Y17.4834 
G01 X-45.7791 Y17.4084 
G01 X-45.6453 Y17.3112 
G01 X-45.5284 Y17.1943 
G01 X-45.4312 Y17.0605 
G01 X-45.3562 Y16.9132 
G01 X-45.3051 Y16.7560 
G01 X-45.2792 Y16.5927 
G01 X-45.2792 Y16.4273 
G01 X-45.3051 Y16.2640 
G01 X-45.3562 Y16.1068 
G01 X-45.4312 Y15.9595 
G01 X-45.5284 Y15.8257 
G00 Z2.0000  
G00 X-45.5284 Y18.3657 
G01 Z-0.0500 F500   
G01 X-45.6453 Y18.2488 F500   
G01 X-45.7791 Y18.1516 
G01 X-45.9264 Y18.0766 
G01 X-46.0836 Y18.0255 
G01 X-46.2469 Y17.9996 
G01 X-47.7331 Y17.9996 
G01 X-47.8934 Y18.0250 
G01 X-49.5122 Y18.0250 
G01 X-49.5958 Y17.9824 
G01 X-49.7682 Y17.9264 
G01 X-49.9473 Y17.8980 
G01 X-51.6527 Y17.8980 
G01 X-51.8318 Y17.9264 
G01 X-52.0042 Y17.9824 
G01 X-52.1658 Y18.0647 
G01 X-52.3125 Y18.1713 
G01 X-52.4407 Y18.2995 
G01 X-52.5473 Y18.4462 
G01 X-52.6296 Y18.6078 
G01 X-52.6856 Y18.7802 
G01 X-52.7140 Y18.9593 
G01 X-52.7140 Y19.1407 
G01 X-52.6856 Y19.3198 
G01 X-52.6296 Y19.4922 
G01 X-52.5473 Y19.6538 
G01 X-52.4407 Y19.8005 
G01 X-52.3125 Y19.9287 
G01 X-52.1658 Y20.0353 
G01 X-52.0042 Y20.1176 
G01 X-51.8318 Y20.1736 
G01 X-51.6527 Y20.2020 
G01 X-49.9473 Y20.2020 
G01 X-49.7682 Y20.1736 
G01 X-49.5958 Y20.1176 
G01 X-49.5122 Y20.0750 
G01 X-47.8934 Y20.0750 
G01 X-47.7331 Y20.1004 
G01 X-46.2469 Y20.1004 
G01 X-46.0836 Y20.0745 
G01 X-45.9264 Y20.0234 
G01 X-45.7791 Y19.9484 
G01 X-45.6453 Y19.8512 
G01 X-45.5284 Y19.7343 
G01 X-45.4312 Y19.6005 
G01 X-45.3562 Y19.4532 
G01 X-45.3051 Y19.2960 
G01 X-45.2792 Y19.1327 
G01 X-45.2792 Y18.9673 
G01 X-45.3051 Y18.8040 
G01 X-45.3562 Y18.6468 
G01 X-45.4312 Y18.4995 
G01 X-45.5284 Y18.3657 
G00 Z2.0000  
G00 X-45.5284 Y20.9057 
G01 Z-0.0500 F500   
G01 X-45.6453 Y20.7888 F500   
G01 X-45.7791 Y20.6916 
G01 X-45.9264 Y20.6166 
G01 X-46.0836 Y20.5655 
G01 X-46.2469 Y20.5396 
G01 X-47.7331 Y20.5396 
G01 X-47.8934 Y20.5650 
G01 X-49.5122 Y20.5650 
G01 X-49.5958 Y20.5224 
G01 X-49.7682 Y20.4664 
G01 X-49.9473 Y20.4380 
G01 X-51.6527 Y20.4380 
G01 X-51.8318 Y20.4664 
G01 X-52.0042 Y20.5224 
G01 X-52.1658 Y20.6047 
G01 X-52.3125 Y20.7113 
G01 X-52.4407 Y20.8395 
G01 X-52.5473 Y20.9862 
G01 X-52.6296 Y21.1478 
G01 X-52.6856 Y21.3202 
G01 X-52.7140 Y21.4993 
G01 X-52.7140 Y21.6807 
G01 X-52.6856 Y21.8598 
G01 X-52.6296 Y22.0322 
G01 X-52.5473 Y22.1938 
G01 X-52.4407 Y22.3405 
G01 X-52.3125 Y22.4687 
G01 X-52.1658 Y22.5753 
G01 X-52.0042 Y22.6576 
G01 X-51.8318 Y22.7136 
G01 X-51.6527 Y22.7420 
G01 X-49.9473 Y22.7420 
G01 X-49.7682 Y22.7136 
G01 X-49.5958 Y22.6576 
G01 X-49.5122 Y22.6150 
G01 X-47.8934 Y22.6150 
G01 X-47.7331 Y22.6404 
G01 X-46.2469 Y22.6404 
G01 X-46.0836 Y22.6145 
G01 X-45.9264 Y22.5634 
G01 X-45.7791 Y22.4884 
G01 X-45.6453 Y22.3912 
G01 X-45.5284 Y22.2743 
G01 X-45.4312 Y22.1405 
G01 X-45.3562 Y21.9932 
G01 X-45.3051 Y21.8360 
G01 X-45.2792 Y21.6727 
G01 X-45.2792 Y21.5073 
G01 X-45.3051 Y21.3440 
G01 X-45.3562 Y21.1868 
G01 X-45.4312 Y21.0395 
G01 X-45.5284 Y20.9057 
G00 Z2.0000  
G00 X-45.5284 Y23.4457 
G01 Z-0.0500 F500   
G01 X-45.6453 Y23.3288 F500   
G01 X-45.7791 Y23.2316 
G01 X-45.9264 Y23.1566 
G01 X-46.0836 Y23.1055 
G01 X-46.2469 Y23.0796 
G01 X-47.7331 Y23.0796 
G01 X-47.8934 Y23.1050 
G01 X-49.5122 Y23.1050 
G01 X-49.5958 Y23.0624 
G01 X-49.7682 Y23.0064 
G01 X-49.9473 Y22.9780 
G01 X-51.6527 Y22.9780 
G01 X-51.8318 Y23.0064 
G01 X-52.0042 Y23.0624 
G01 X-52.1658 Y23.1447 
G01 X-52.3125 Y23.2513 
G01 X-52.4407 Y23.3795 
G01 X-52.5473 Y23.5262 
G01 X-52.6296 Y23.6878 
G01 X-52.6856 Y23.8602 
G01 X-52.7140 Y24.0393 
G01 X-52.7140 Y24.2207 
G01 X-52.6856 Y24.3998 
G01 X-52.6296 Y24.5722 
G01 X-52.5473 Y24.7338 
G01 X-52.4407 Y24.8805 
G01 X-52.3125 Y25.0087 
G01 X-52.1658 Y25.1153 
G01 X-52.0042 Y25.1976 
G01 X-51.8318 Y25.2536 
G01 X-51.6527 Y25.2820 
G01 X-49.9473 Y25.2820 
G01 X-49.7682 Y25.2536 
G01 X-49.5958 Y25.1976 
G01 X-49.5122 Y25.1550 
G01 X-47.8934 Y25.1550 
G01 X-47.7331 Y25.1804 
G01 X-46.2469 Y25.1804 
G01 X-46.0836 Y25.1545 
G01 X-45.9264 Y25.1034 
G01 X-45.7791 Y25.0284 
G01 X-45.6453 Y24.9312 
G01 X-45.5284 Y24.8143 
G01 X-45.4312 Y24.6805 
G01 X-45.3562 Y24.5332 
G01 X-45.3051 Y24.3760 
G01 X-45.2792 Y24.2127 
G01 X-45.2792 Y24.0473 
G01 X-45.3051 Y23.8840 
G01 X-45.3562 Y23.7268 
G01 X-45.4312 Y23.5795 
G01 X-45.5284 Y23.4457 
G00 Z2.0000  
G00 X-45.5284 Y25.9857 
G01 Z-0.0500 F500   
G01 X-45.6453 Y25.8688 F500   
G01 X-45.7791 Y25.7716 
G01 X-45.9264 Y25.6966 
G01 X-46.0836 Y25.6455 
G01 X-46.2469 Y25.6196 
G01 X-47.7331 Y25.6196 
G01 X-47.8934 Y25.6450 
G01 X-49.5122 Y25.6450 
G01 X-49.5958 Y25.6024 
G01 X-49.7682 Y25.5464 
G01 X-49.9473 Y25.5180 
G01 X-51.6527 Y25.5180 
G01 X-51.8318 Y25.5464 
G01 X-52.0042 Y25.6024 
G01 X-52.1658 Y25.6847 
G01 X-52.3125 Y25.7913 
G01 X-52.4407 Y25.9195 
G01 X-52.5473 Y26.0662 
G01 X-52.6296 Y26.2278 
G01 X-52.6856 Y26.4002 
G01 X-52.7140 Y26.5793 
G01 X-52.7140 Y26.7607 
G01 X-52.6856 Y26.9398 
G01 X-52.6296 Y27.1122 
G01 X-52.5473 Y27.2738 
G01 X-52.4407 Y27.4205 
G01 X-52.3125 Y27.5487 
G01 X-52.1658 Y27.6553 
G01 X-52.0042 Y27.7376 
G01 X-51.8318 Y27.7936 
G01 X-51.6527 Y27.8220 
G01 X-49.9473 Y27.8220 
G01 X-49.7682 Y27.7936 
G01 X-49.5958 Y27.7376 
G01 X-49.5122 Y27.6950 
G01 X-47.8934 Y27.6950 
G01 X-47.7331 Y27.7204 
G01 X-46.2469 Y27.7204 
G01 X-46.0836 Y27.6945 
G01 X-45.9264 Y27.6434 
G01 X-45.7791 Y27.5684 
G01 X-45.6453 Y27.4712 
G01 X-45.5284 Y27.3543 
G01 X-45.4312 Y27.2205 
G01 X-45.3562 Y27.0732 
G01 X-45.3051 Y26.9160 
G01 X-45.2792 Y26.7527 
G01 X-45.2792 Y26.5873 
G01 X-45.3051 Y26.4240 
G01 X-45.3562 Y26.2668 
G01 X-45.4312 Y26.1195 
G01 X-45.5284 Y25.9857 
G00 Z2.0000  
G00 X-3.8100 Y8.8900  
G01 Z-0.0400 F50    
G00 Z2.0000  
G00 X-13.9700 Y8.8900  
G01 Z-0.0400 F50    
G00 Z2.0000  
G00 X-36.8300 Y19.0500 
G01 Z-0.0400 F50    
G00 Z2.0000  
G00 X-36.8300 Y11.4300 
G01 Z-0.0400 F50    
G00 Z2.0000  
G00 X-36.8300 Y8.8900  
G01 Z-0.0400 F50    
G00 Z2.0000  
G00 X-36.8300 Y6.3500  
G01 Z-0.0400 F50    
G00 Z2.0000  
G00 X-36.8300 Y13.9700 
G01 Z-0.0400 F50    
G00 Z2.0000  
G00 X-36.8300 Y21.5900 
G01 Z-0.0400 F50    
G00 Z2.0000  
G00 X-36.8300 Y24.1300 
G01 Z-0.0400 F50    
G00 Z2.0000  
G00 X-20.3200 Y29.2100 
G01 Z-0.0400 F50    
G00 Z2.0000  
G00 X-21.5900 Y26.6700 
G01 Z-0.0400 F50    
G00 Z2.0000  
G00 X-29.2100 Y26.6700 
G01 Z-0.0400 F50    
G00 Z2.0000  
G00 X-11.4300 Y6.3500  
G01 Z-0.0400 F50    
G00 Z2.0000  
G00 X-6.3500 Y10.1600 
G01 Z-0.0400 F50    
G00 Z2.0000  
G00 X-11.4300 Y10.1600 
G01 Z-0.0400 F50    
G00 Z2.0000  
G00 X-19.0500 Y24.1300 
G01 Z-0.0400 F50    
G00 Z2.0000  
G00 X-31.7500 Y21.5900 
G01 Z-0.0400 F50    
G00 Z2.0000  
G00 X-31.7500 Y19.0500 
G01 Z-0.0400 F50    
G00 Z2.0000  
G00 X-31.7500 Y13.9700 
G01 Z-0.0400 F50    
G00 Z2.0000  
G00 X-21.5900 Y11.4300 
G01 Z-0.0400 F50    
G00 Z2.0000  
G00 X-24.1300 Y8.8900  
G01 Z-0.0400 F50    
G00 Z2.0000  
G00 X-29.2100 Y22.8600 
G01 Z-0.0400 F50    
G00 Z2.0000  
G00 X-29.2100 Y13.9700 
G01 Z-0.0400 F50    
G00 Z2.0000  
G00 X-26.6700 Y29.2100 
G01 Z-0.0400 F50    
G00 Z2.0000  
G00 X-39.3700 Y29.2100 
G01 Z-0.0400 F50    
G00 Z2.0000  
G00 X-39.3700 Y26.6700 
G01 Z-0.0400 F50    
G00 Z2.0000  
G00 X-39.3700 Y24.1300 
G01 Z-0.0400 F50    
G00 Z2.0000  
G00 X-39.3700 Y21.5900 
G01 Z-0.0400 F50    
G00 Z2.0000  
G00 X-39.3700 Y19.0500 
G01 Z-0.0400 F50    
G00 Z2.0000  
G00 X-39.3700 Y16.5100 
G01 Z-0.0400 F50    
G00 Z2.0000  
G00 X-39.3700 Y13.9700 
G01 Z-0.0400 F50    
G00 Z2.0000  
G00 X-39.3700 Y11.4300 
G01 Z-0.0400 F50    
G00 Z2.0000  
G00 X-39.3700 Y8.8900  
G01 Z-0.0400 F50    
G00 Z2.0000  
G00 X-39.3700 Y6.3500  
G01 Z-0.0400 F50    
G00 Z2.0000  
G00 X-46.9900 Y6.3500  
G01 Z-0.0400 F50    
G00 Z2.0000  
G00 X-46.9900 Y8.8900  
G01 Z-0.0400 F50    
G00 Z2.0000  
G00 X-46.9900 Y11.4300 
G01 Z-0.0400 F50    
G00 Z2.0000  
G00 X-46.9900 Y13.9700 
G01 Z-0.0400 F50    
G00 Z2.0000  
G00 X-46.9900 Y16.5100 
G01 Z-0.0400 F50    
G00 Z2.0000  
G00 X-46.9900 Y19.0500 
G01 Z-0.0400 F50    
G00 Z2.0000  
G00 X-46.9900 Y21.5900 
G01 Z-0.0400 F50    
G00 Z2.0000  
G00 X-46.9900 Y24.1300 
G01 Z-0.0400 F50    
G00 Z2.0000  
G00 X-46.9900 Y26.6700 
G01 Z-0.0400 F50    
G00 Z2.0000  
G00 X-46.9900 Y29.2100 
G01 Z-0.0400 F50    
G00 Z2.0000  
G00 X-26.6700 Y21.5900 
G01 Z-0.0400 F50    
G00 Z2.0000  
G00 X-24.1300 Y21.5900 
G01 Z-0.0400 F50    
G00 Z2.0000  
G00 X-21.5900 Y21.5900 
G01 Z-0.0400 F50    
G00 Z2.0000  
G00 X-19.0500 Y21.5900 
G01 Z-0.0400 F50    
G00 Z2.0000  
G00 X-16.5100 Y21.5900 
G01 Z-0.0400 F50    
G00 Z2.0000  
G00 X-13.9700 Y21.5900 
G01 Z-0.0400 F50    
G00 Z2.0000  
G00 X-11.4300 Y21.5900 
G01 Z-0.0400 F50    
G00 Z2.0000  
G00 X-11.4300 Y13.9700 
G01 Z-0.0400 F50    
G00 Z2.0000  
G00 X-13.9700 Y13.9700 
G01 Z-0.0400 F50    
G00 Z2.0000  
G00 X-16.5100 Y13.9700 
G01 Z-0.0400 F50    
G00 Z2.0000  
G00 X-19.0500 Y13.9700 
G01 Z-0.0400 F50    
G00 Z2.0000  
G00 X-21.5900 Y13.9700 
G01 Z-0.0400 F50    
G00 Z2.0000  
G00 X-24.1300 Y13.9700 
G01 Z-0.0400 F50    
G00 Z2.0000  
G00 X-26.6700 Y13.9700 
G01 Z-0.0400 F50    
G00 Z2.0000  
G00 X-7.6200 Y29.2100 
G01 Z-0.0400 F50    
G00 Z2.0000  
G00 X-10.1600 Y29.2100 
G01 Z-0.0400 F50    
G00 Z2.0000  
G00 X-12.7000 Y29.2100 
G01 Z-0.0400 F50    
G00 Z2.0000  
G00 X-15.2400 Y29.2100 
G01 Z-0.0400 F50    
G00 Z2.0000  
G00 X-17.7800 Y29.2100 
G01 Z-0.0400 F50    
G00 Z2.0000  
G00 X-50.8000 Y26.6700 
G01 Z-0.0400 F50    
G00 Z2.0000  
G00 X-50.8000 Y24.1300 
G01 Z-0.0400 F50    
G00 Z2.0000  
G00 X-50.8000 Y21.5900 
G01 Z-0.0400 F50    
G00 Z2.0000  
G00 X-50.8000 Y19.0500 
G01 Z-0.0400 F50    
G00 Z2.0000  
G00 X-50.8000 Y16.5100 
G01 Z-0.0400 F50    
G00 Z2.0000  
G00 X-50.8000 Y13.9700 
G01 Z-0.0400 F50    
G00 Z2.0000  
G00 X-50.8000 Y11.4300 
G01 Z-0.0400 F50    
G00 Z2.0000  
G00 X-50.8000 Y8.8900  
G01 Z-0.0400 F50    
G00 Z2.0000  
G00 Z5.0000  
M05
M02
