(.../Documents/eagle/pcbgcode/pcb-gcode.ulp)
(Copyright 2005 - 2012 by John Johnson)
(See readme.txt for licensing terms.)
(This file generated from the board:)
(.../ardmos/schematics/595shiftOut.brd)
(Current profile is .../eagle/pcbgcode/profiles/mach.pp  )
(This file generated 7/28/15 9:20 PM)
(Settings from pcb-machine.h)
(spindle on time = 1.0000)
(spindle speed = 20000.0000)
(tool change at 0.0000  0.0000  25.4000 )
(feed rate xy = F0     )
(feed rate z  = F50    )
(Z Axis Settings)
(  High     Up        Down     Drill)
(5.0000  	2.0000  	-0.0500 	-2.5000 )
(Settings from pcb-defaults.h)
(isolate min = 0.3500)
(isolate max = 0.5000)
(isolate step = 0.2000)
(Generated bottom outlines, bottom drill, )
(Unit of measure: mm)
( Tool|       Size       |  Min Sub |  Max Sub |   Count )
( T01 | 0.600mm 0.0236in | 0.0000in | 0.0000in |       0 )
( T02 | 0.813mm 0.0320in | 0.0000in | 0.0000in |       0 )
( T03 | 1.016mm 0.0400in | 0.0000in | 0.0000in |       0 )
(Metric Mode)
G21
(Absolute Coordinates)
G90
S20000
G00 Z5.0000  
G00 X0.0000  Y0.0000  
M03
G04 P1.000000
M05
G00 Z25.4000 
M06 T01  ; 0.6000  
G00 Z2.0000  
M03
G04 P1.000000
G00 X-24.1300 Y20.3200 
G01 Z-2.5000 F50    
G00 Z2.0000  
G00 X-29.2100 Y24.1300 
G01 Z-2.5000 F50    
G00 Z2.0000  
G00 X-31.7500 Y24.1300 
G01 Z-2.5000 F50    
G00 Z2.0000  
G00 X-36.8300 Y24.1300 
G01 Z-2.5000 F50    
G00 Z2.0000  
G00 X-40.6400 Y24.1300 
G01 Z-2.5000 F50    
G00 Z2.0000  
G00 X-40.6400 Y29.2100 
G01 Z-2.5000 F50    
G00 Z2.0000  
G00 X-36.8300 Y36.8300 
G01 Z-2.5000 F50    
G00 Z2.0000  
G00 X-31.7500 Y31.7500 
G01 Z-2.5000 F50    
G00 Z2.0000  
G00 X-29.2100 Y34.2900 
G01 Z-2.5000 F50    
G00 Z2.0000  
G00 X-57.1500 Y36.8300 
G01 Z-2.5000 F50    
G00 Z2.0000  
G00 X-62.2300 Y34.2900 
G01 Z-2.5000 F50    
G00 Z2.0000  
G00 X-64.7700 Y31.7500 
G01 Z-2.5000 F50    
G00 Z2.0000  
G00 X-64.7700 Y24.1300 
G01 Z-2.5000 F50    
G00 Z2.0000  
G00 X-62.2300 Y24.1300 
G01 Z-2.5000 F50    
G00 Z2.0000  
G00 X-57.1500 Y24.1300 
G01 Z-2.5000 F50    
G00 Z2.0000  
G00 X-69.8500 Y20.3200 
G01 Z-2.5000 F50    
G00 Z2.0000  
G00 X-73.6600 Y24.1300 
G01 Z-2.5000 F50    
G00 Z2.0000  
G00 X-73.6600 Y29.2100 
G01 Z-2.5000 F50    
G00 Z2.0000  
M05
G00 Z25.4000 
G00 X0.0000  Y0.0000  
M06 T02  ; 0.8128  
G00 Z2.0000  
M03
G04 P1.000000
G00 X-19.0500 Y10.1600 
G01 Z-2.5000 F50    
G00 Z2.0000  
G00 X-21.5900 Y10.1600 
G01 Z-2.5000 F50    
G00 Z2.0000  
G00 X-24.1300 Y10.1600 
G01 Z-2.5000 F50    
G00 Z2.0000  
G00 X-26.6700 Y10.1600 
G01 Z-2.5000 F50    
G00 Z2.0000  
G00 X-29.2100 Y10.1600 
G01 Z-2.5000 F50    
G00 Z2.0000  
G00 X-31.7500 Y10.1600 
G01 Z-2.5000 F50    
G00 Z2.0000  
G00 X-34.2900 Y10.1600 
G01 Z-2.5000 F50    
G00 Z2.0000  
G00 X-36.8300 Y10.1600 
G01 Z-2.5000 F50    
G00 Z2.0000  
G00 X-36.8300 Y17.7800 
G01 Z-2.5000 F50    
G00 Z2.0000  
G00 X-34.2900 Y17.7800 
G01 Z-2.5000 F50    
G00 Z2.0000  
G00 X-31.7500 Y17.7800 
G01 Z-2.5000 F50    
G00 Z2.0000  
G00 X-29.2100 Y17.7800 
G01 Z-2.5000 F50    
G00 Z2.0000  
G00 X-26.6700 Y17.7800 
G01 Z-2.5000 F50    
G00 Z2.0000  
G00 X-24.1300 Y17.7800 
G01 Z-2.5000 F50    
G00 Z2.0000  
G00 X-21.5900 Y17.7800 
G01 Z-2.5000 F50    
G00 Z2.0000  
G00 X-19.0500 Y17.7800 
G01 Z-2.5000 F50    
G00 Z2.0000  
G00 X-52.0700 Y17.7800 
G01 Z-2.5000 F50    
G00 Z2.0000  
G00 X-54.6100 Y17.7800 
G01 Z-2.5000 F50    
G00 Z2.0000  
G00 X-57.1500 Y17.7800 
G01 Z-2.5000 F50    
G00 Z2.0000  
G00 X-59.6900 Y17.7800 
G01 Z-2.5000 F50    
G00 Z2.0000  
G00 X-62.2300 Y17.7800 
G01 Z-2.5000 F50    
G00 Z2.0000  
G00 X-64.7700 Y17.7800 
G01 Z-2.5000 F50    
G00 Z2.0000  
G00 X-67.3100 Y17.7800 
G01 Z-2.5000 F50    
G00 Z2.0000  
G00 X-69.8500 Y17.7800 
G01 Z-2.5000 F50    
G00 Z2.0000  
G00 X-69.8500 Y10.1600 
G01 Z-2.5000 F50    
G00 Z2.0000  
G00 X-67.3100 Y10.1600 
G01 Z-2.5000 F50    
G00 Z2.0000  
G00 X-64.7700 Y10.1600 
G01 Z-2.5000 F50    
G00 Z2.0000  
G00 X-62.2300 Y10.1600 
G01 Z-2.5000 F50    
G00 Z2.0000  
G00 X-59.6900 Y10.1600 
G01 Z-2.5000 F50    
G00 Z2.0000  
G00 X-57.1500 Y10.1600 
G01 Z-2.5000 F50    
G00 Z2.0000  
G00 X-54.6100 Y10.1600 
G01 Z-2.5000 F50    
G00 Z2.0000  
G00 X-52.0700 Y10.1600 
G01 Z-2.5000 F50    
G00 Z2.0000  
M05
G00 Z25.4000 
G00 X0.0000  Y0.0000  
M06 T03  ; 1.0160  
G00 Z2.0000  
M03
G04 P1.000000
G00 X-7.6200 Y26.6700 
G01 Z-2.5000 F50    
G00 Z2.0000  
G00 X-7.6200 Y29.2100 
G01 Z-2.5000 F50    
G00 Z2.0000  
G00 X-7.6200 Y31.7500 
G01 Z-2.5000 F50    
G00 Z2.0000  
G00 X-7.6200 Y34.2900 
G01 Z-2.5000 F50    
G00 Z2.0000  
G00 X-7.6200 Y36.8300 
G01 Z-2.5000 F50    
G00 Z2.0000  
G00 X-16.5100 Y5.0800  
G01 Z-2.5000 F50    
G00 Z2.0000  
G00 X-19.0500 Y5.0800  
G01 Z-2.5000 F50    
G00 Z2.0000  
G00 X-21.5900 Y5.0800  
G01 Z-2.5000 F50    
G00 Z2.0000  
G00 X-24.1300 Y5.0800  
G01 Z-2.5000 F50    
G00 Z2.0000  
G00 X-26.6700 Y5.0800  
G01 Z-2.5000 F50    
G00 Z2.0000  
G00 X-29.2100 Y5.0800  
G01 Z-2.5000 F50    
G00 Z2.0000  
G00 X-31.7500 Y5.0800  
G01 Z-2.5000 F50    
G00 Z2.0000  
G00 X-34.2900 Y5.0800  
G01 Z-2.5000 F50    
G00 Z2.0000  
G00 X-49.5300 Y5.0800  
G01 Z-2.5000 F50    
G00 Z2.0000  
G00 X-52.0700 Y5.0800  
G01 Z-2.5000 F50    
G00 Z2.0000  
G00 X-54.6100 Y5.0800  
G01 Z-2.5000 F50    
G00 Z2.0000  
G00 X-57.1500 Y5.0800  
G01 Z-2.5000 F50    
G00 Z2.0000  
G00 X-59.6900 Y5.0800  
G01 Z-2.5000 F50    
G00 Z2.0000  
G00 X-62.2300 Y5.0800  
G01 Z-2.5000 F50    
G00 Z2.0000  
G00 X-64.7700 Y5.0800  
G01 Z-2.5000 F50    
G00 Z2.0000  
G00 X-67.3100 Y5.0800  
G01 Z-2.5000 F50    
G00 Z2.0000  
G00 X-78.7400 Y26.6700 
G01 Z-2.5000 F50    
G00 Z2.0000  
G00 X-78.7400 Y29.2100 
G01 Z-2.5000 F50    
G00 Z2.0000  
G00 X-78.7400 Y31.7500 
G01 Z-2.5000 F50    
G00 Z2.0000  
G00 X-78.7400 Y34.2900 
G01 Z-2.5000 F50    
G00 Z2.0000  
G00 X-78.7400 Y36.8300 
G01 Z-2.5000 F50    
G00 Z2.0000  
T01 
G00 Z5.0000  
M05
M02
