(.../Documents/eagle/pcbgcode/pcb-gcode.ulp)
(Copyright 2005 - 2012 by John Johnson)
(See readme.txt for licensing terms.)
(This file generated from the board:)
(.../ardmos/schematics/595shiftOut.brd)
(Current profile is .../eagle/pcbgcode/profiles/mach.pp  )
(This file generated 7/28/15 9:20 PM)
(Settings from pcb-machine.h)
(spindle on time = 1.0000)
(  Tool Size)
(0.0800  )
(spindle speed = 30000.0000)
(tool change at 0.0000  0.0000  25.4000 )
(feed rate xy = F500   )
(feed rate z  = F500   )
(Z Axis Settings)
(  High     Up        Down     Drill)
(5.0000  	2.0000  	-0.0500 	-2.5000 )
(Settings from pcb-defaults.h)
(isolate min = 0.3500)
(isolate max = 0.5000)
(isolate step = 0.2000)
(Generated bottom outlines, bottom drill, )
(Unit of measure: mm)
(Metric Mode)
G21
(Absolute Coordinates)
G90
S30000
G00 Z5.0000  
G00 X0.0000  Y0.0000  
M03
G04 P1.000000
G00 Z2.0000  
G00 X-15.6313 Y3.5675  
G01 Z-0.0500 F500   
G01 X-15.7595 Y3.4393  F500   
G01 X-15.9062 Y3.3327  
G01 X-16.0678 Y3.2504  
G01 X-16.2402 Y3.1944  
G01 X-16.4193 Y3.1660  
G01 X-16.6007 Y3.1660  
G01 X-16.7798 Y3.1944  
G01 X-16.9522 Y3.2504  
G01 X-17.1138 Y3.3327  
G01 X-17.2605 Y3.4393  
G01 X-17.3887 Y3.5675  
G01 X-17.4953 Y3.7142  
G01 X-17.5776 Y3.8758  
G01 X-17.6336 Y4.0482  
G01 X-17.6620 Y4.2273  
G01 X-17.6620 Y4.6510  
G01 X-17.7080 Y4.7924  
G01 X-17.7382 Y4.9833  
G01 X-17.7382 Y12.7418 
G01 X-21.6867 Y12.7418 
G01 X-21.8776 Y12.7720 
G01 X-22.0615 Y12.8318 
G01 X-22.2337 Y12.9195 
G01 X-22.3901 Y13.0332 
G01 X-22.5268 Y13.1699 
G01 X-22.6404 Y13.3263 
G01 X-22.7282 Y13.4985 
G01 X-22.7880 Y13.6824 
G01 X-22.8182 Y13.8733 
G01 X-22.8182 Y17.8767 
G01 X-22.7880 Y18.0676 
G01 X-22.7282 Y18.2515 
G01 X-22.6404 Y18.4237 
G01 X-22.6404 Y18.5231 
G01 X-22.6145 Y18.6864 
G01 X-22.5634 Y18.8436 
G01 X-22.4884 Y18.9909 
G01 X-22.3912 Y19.1247 
G01 X-22.2743 Y19.2416 
G01 X-22.1405 Y19.3388 
G01 X-21.9932 Y19.4138 
G01 X-21.8360 Y19.4649 
G01 X-21.6727 Y19.4908 
G01 X-21.5073 Y19.4908 
G01 X-21.3440 Y19.4649 
G01 X-21.1868 Y19.4138 
G01 X-21.0395 Y19.3388 
G01 X-20.9057 Y19.2416 
G01 X-20.7888 Y19.1247 
G01 X-20.6916 Y18.9909 
G01 X-20.6166 Y18.8436 
G01 X-20.5655 Y18.6864 
G01 X-20.5396 Y18.5231 
G01 X-20.5396 Y18.4238 
G01 X-20.4518 Y18.2515 
G01 X-20.3920 Y18.0676 
G01 X-20.3618 Y17.8767 
G01 X-20.3618 Y15.1982 
G01 X-16.4133 Y15.1982 
G01 X-16.2224 Y15.1680 
G01 X-16.0385 Y15.1082 
G01 X-15.8663 Y15.0204 
G01 X-15.7099 Y14.9068 
G01 X-15.5732 Y14.7701 
G01 X-15.4596 Y14.6137 
G01 X-15.3718 Y14.4415 
G01 X-15.3120 Y14.2576 
G01 X-15.2818 Y14.0667 
G01 X-15.2818 Y4.9833  
G01 X-15.3120 Y4.7924  
G01 X-15.3580 Y4.6510  
G01 X-15.3580 Y4.2273  
G01 X-15.3864 Y4.0482  
G01 X-15.4424 Y3.8758  
G01 X-15.5247 Y3.7142  
G01 X-15.6313 Y3.5675  
G00 Z2.0000  
G00 X-18.1713 Y3.5675  
G01 Z-0.0500 F500   
G01 X-18.2995 Y3.4393  F500   
G01 X-18.4462 Y3.3327  
G01 X-18.6078 Y3.2504  
G01 X-18.7802 Y3.1944  
G01 X-18.9593 Y3.1660  
G01 X-19.1407 Y3.1660  
G01 X-19.3198 Y3.1944  
G01 X-19.4922 Y3.2504  
G01 X-19.6538 Y3.3327  
G01 X-19.8005 Y3.4393  
G01 X-19.9287 Y3.5675  
G01 X-20.0353 Y3.7142  
G01 X-20.1176 Y3.8758  
G01 X-20.1736 Y4.0482  
G01 X-20.2020 Y4.2273  
G01 X-20.2020 Y4.6510  
G01 X-20.2480 Y4.7924  
G01 X-20.2782 Y4.9833  
G01 X-20.2782 Y10.2567 
G01 X-20.2480 Y10.4476 
G01 X-20.1882 Y10.6315 
G01 X-20.1004 Y10.8037 
G01 X-20.1004 Y10.9031 
G01 X-20.0745 Y11.0664 
G01 X-20.0234 Y11.2236 
G01 X-19.9484 Y11.3709 
G01 X-19.8512 Y11.5047 
G01 X-19.7343 Y11.6216 
G01 X-19.6005 Y11.7188 
G01 X-19.4532 Y11.7938 
G01 X-19.2960 Y11.8449 
G01 X-19.1327 Y11.8708 
G01 X-18.9673 Y11.8708 
G01 X-18.8040 Y11.8449 
G01 X-18.6468 Y11.7938 
G01 X-18.4995 Y11.7188 
G01 X-18.3657 Y11.6216 
G01 X-18.2488 Y11.5047 
G01 X-18.1516 Y11.3709 
G01 X-18.0766 Y11.2236 
G01 X-18.0255 Y11.0664 
G01 X-17.9996 Y10.9031 
G01 X-17.9996 Y10.8038 
G01 X-17.9118 Y10.6315 
G01 X-17.8520 Y10.4476 
G01 X-17.8218 Y10.2567 
G01 X-17.8218 Y4.9833  
G01 X-17.8520 Y4.7924  
G01 X-17.8980 Y4.6510  
G01 X-17.8980 Y4.2273  
G01 X-17.9264 Y4.0482  
G01 X-17.9824 Y3.8758  
G01 X-18.0647 Y3.7142  
G01 X-18.1713 Y3.5675  
G00 Z2.0000  
G00 X-20.7113 Y3.5675  
G01 Z-0.0500 F500   
G01 X-20.8395 Y3.4393  F500   
G01 X-20.9862 Y3.3327  
G01 X-21.1478 Y3.2504  
G01 X-21.3202 Y3.1944  
G01 X-21.4993 Y3.1660  
G01 X-21.6807 Y3.1660  
G01 X-21.8598 Y3.1944  
G01 X-22.0322 Y3.2504  
G01 X-22.1938 Y3.3327  
G01 X-22.3405 Y3.4393  
G01 X-22.4687 Y3.5675  
G01 X-22.5753 Y3.7142  
G01 X-22.6576 Y3.8758  
G01 X-22.7136 Y4.0482  
G01 X-22.7420 Y4.2273  
G01 X-22.7420 Y4.6510  
G01 X-22.7880 Y4.7924  
G01 X-22.8182 Y4.9833  
G01 X-22.8182 Y10.2567 
G01 X-22.7880 Y10.4476 
G01 X-22.7282 Y10.6315 
G01 X-22.6404 Y10.8037 
G01 X-22.6404 Y10.9031 
G01 X-22.6145 Y11.0664 
G01 X-22.5634 Y11.2236 
G01 X-22.4884 Y11.3709 
G01 X-22.3912 Y11.5047 
G01 X-22.2743 Y11.6216 
G01 X-22.1405 Y11.7188 
G01 X-21.9932 Y11.7938 
G01 X-21.8360 Y11.8449 
G01 X-21.6727 Y11.8708 
G01 X-21.5073 Y11.8708 
G01 X-21.3440 Y11.8449 
G01 X-21.1868 Y11.7938 
G01 X-21.0395 Y11.7188 
G01 X-20.9057 Y11.6216 
G01 X-20.7888 Y11.5047 
G01 X-20.6916 Y11.3709 
G01 X-20.6166 Y11.2236 
G01 X-20.5655 Y11.0664 
G01 X-20.5396 Y10.9031 
G01 X-20.5396 Y10.8038 
G01 X-20.4518 Y10.6315 
G01 X-20.3920 Y10.4476 
G01 X-20.3618 Y10.2567 
G01 X-20.3618 Y4.9833  
G01 X-20.3920 Y4.7924  
G01 X-20.4380 Y4.6510  
G01 X-20.4380 Y4.2273  
G01 X-20.4664 Y4.0482  
G01 X-20.5224 Y3.8758  
G01 X-20.6047 Y3.7142  
G01 X-20.7113 Y3.5675  
G00 Z2.0000  
G00 X-23.2513 Y3.5675  
G01 Z-0.0500 F500   
G01 X-23.3795 Y3.4393  F500   
G01 X-23.5262 Y3.3327  
G01 X-23.6878 Y3.2504  
G01 X-23.8602 Y3.1944  
G01 X-24.0393 Y3.1660  
G01 X-24.2207 Y3.1660  
G01 X-24.3998 Y3.1944  
G01 X-24.5722 Y3.2504  
G01 X-24.7338 Y3.3327  
G01 X-24.8805 Y3.4393  
G01 X-25.0087 Y3.5675  
G01 X-25.1153 Y3.7142  
G01 X-25.1976 Y3.8758  
G01 X-25.2536 Y4.0482  
G01 X-25.2820 Y4.2273  
G01 X-25.2820 Y4.6510  
G01 X-25.3280 Y4.7924  
G01 X-25.3582 Y4.9833  
G01 X-25.3582 Y10.2567 
G01 X-25.3280 Y10.4476 
G01 X-25.2682 Y10.6315 
G01 X-25.1804 Y10.8037 
G01 X-25.1804 Y10.9031 
G01 X-25.1545 Y11.0664 
G01 X-25.1034 Y11.2236 
G01 X-25.0284 Y11.3709 
G01 X-24.9312 Y11.5047 
G01 X-24.8143 Y11.6216 
G01 X-24.6805 Y11.7188 
G01 X-24.5332 Y11.7938 
G01 X-24.3760 Y11.8449 
G01 X-24.2127 Y11.8708 
G01 X-24.0473 Y11.8708 
G01 X-23.8840 Y11.8449 
G01 X-23.7268 Y11.7938 
G01 X-23.5795 Y11.7188 
G01 X-23.4457 Y11.6216 
G01 X-23.3288 Y11.5047 
G01 X-23.2316 Y11.3709 
G01 X-23.1566 Y11.2236 
G01 X-23.1055 Y11.0664 
G01 X-23.0796 Y10.9031 
G01 X-23.0796 Y10.8038 
G01 X-22.9918 Y10.6315 
G01 X-22.9320 Y10.4476 
G01 X-22.9018 Y10.2567 
G01 X-22.9018 Y4.9833  
G01 X-22.9320 Y4.7924  
G01 X-22.9780 Y4.6510  
G01 X-22.9780 Y4.2273  
G01 X-23.0064 Y4.0482  
G01 X-23.0624 Y3.8758  
G01 X-23.1447 Y3.7142  
G01 X-23.2513 Y3.5675  
G00 Z2.0000  
G00 X-25.7913 Y3.5675  
G01 Z-0.0500 F500   
G01 X-25.9195 Y3.4393  F500   
G01 X-26.0662 Y3.3327  
G01 X-26.2278 Y3.2504  
G01 X-26.4002 Y3.1944  
G01 X-26.5793 Y3.1660  
G01 X-26.7607 Y3.1660  
G01 X-26.9398 Y3.1944  
G01 X-27.1122 Y3.2504  
G01 X-27.2738 Y3.3327  
G01 X-27.4205 Y3.4393  
G01 X-27.5487 Y3.5675  
G01 X-27.6553 Y3.7142  
G01 X-27.7376 Y3.8758  
G01 X-27.7936 Y4.0482  
G01 X-27.8220 Y4.2273  
G01 X-27.8220 Y4.6510  
G01 X-27.8680 Y4.7924  
G01 X-27.8982 Y4.9833  
G01 X-27.8982 Y10.2567 
G01 X-27.8680 Y10.4476 
G01 X-27.8082 Y10.6315 
G01 X-27.7204 Y10.8037 
G01 X-27.7204 Y10.9031 
G01 X-27.6945 Y11.0664 
G01 X-27.6434 Y11.2236 
G01 X-27.5684 Y11.3709 
G01 X-27.4712 Y11.5047 
G01 X-27.3543 Y11.6216 
G01 X-27.2205 Y11.7188 
G01 X-27.0732 Y11.7938 
G01 X-26.9160 Y11.8449 
G01 X-26.7527 Y11.8708 
G01 X-26.5873 Y11.8708 
G01 X-26.4240 Y11.8449 
G01 X-26.2668 Y11.7938 
G01 X-26.1195 Y11.7188 
G01 X-25.9857 Y11.6216 
G01 X-25.8688 Y11.5047 
G01 X-25.7716 Y11.3709 
G01 X-25.6966 Y11.2236 
G01 X-25.6455 Y11.0664 
G01 X-25.6196 Y10.9031 
G01 X-25.6196 Y10.8038 
G01 X-25.5318 Y10.6315 
G01 X-25.4720 Y10.4476 
G01 X-25.4418 Y10.2567 
G01 X-25.4418 Y4.9833  
G01 X-25.4720 Y4.7924  
G01 X-25.5180 Y4.6510  
G01 X-25.5180 Y4.2273  
G01 X-25.5464 Y4.0482  
G01 X-25.6024 Y3.8758  
G01 X-25.6847 Y3.7142  
G01 X-25.7913 Y3.5675  
G00 Z2.0000  
G00 X-28.3313 Y3.5675  
G01 Z-0.0500 F500   
G01 X-28.4595 Y3.4393  F500   
G01 X-28.6062 Y3.3327  
G01 X-28.7678 Y3.2504  
G01 X-28.9402 Y3.1944  
G01 X-29.1193 Y3.1660  
G01 X-29.3007 Y3.1660  
G01 X-29.4798 Y3.1944  
G01 X-29.6522 Y3.2504  
G01 X-29.8138 Y3.3327  
G01 X-29.9605 Y3.4393  
G01 X-30.0887 Y3.5675  
G01 X-30.1953 Y3.7142  
G01 X-30.2776 Y3.8758  
G01 X-30.3336 Y4.0482  
G01 X-30.3620 Y4.2273  
G01 X-30.3620 Y4.6509  
G01 X-30.4080 Y4.7924  
G01 X-30.4382 Y4.9833  
G01 X-30.4382 Y10.2567 
G01 X-30.4080 Y10.4476 
G01 X-30.3482 Y10.6315 
G01 X-30.2604 Y10.8037 
G01 X-30.2604 Y10.9031 
G01 X-30.2345 Y11.0664 
G01 X-30.1834 Y11.2236 
G01 X-30.1084 Y11.3709 
G01 X-30.0112 Y11.5047 
G01 X-29.8943 Y11.6216 
G01 X-29.7605 Y11.7188 
G01 X-29.6132 Y11.7938 
G01 X-29.4560 Y11.8449 
G01 X-29.2927 Y11.8708 
G01 X-29.1273 Y11.8708 
G01 X-28.9640 Y11.8449 
G01 X-28.8068 Y11.7938 
G01 X-28.6595 Y11.7188 
G01 X-28.5257 Y11.6216 
G01 X-28.4088 Y11.5047 
G01 X-28.3116 Y11.3709 
G01 X-28.2366 Y11.2236 
G01 X-28.1855 Y11.0664 
G01 X-28.1596 Y10.9031 
G01 X-28.1596 Y10.8038 
G01 X-28.0718 Y10.6315 
G01 X-28.0120 Y10.4476 
G01 X-27.9818 Y10.2567 
G01 X-27.9818 Y4.9833  
G01 X-28.0120 Y4.7924  
G01 X-28.0580 Y4.6509  
G01 X-28.0580 Y4.2273  
G01 X-28.0864 Y4.0482  
G01 X-28.1424 Y3.8758  
G01 X-28.2247 Y3.7142  
G01 X-28.3313 Y3.5675  
G00 Z2.0000  
G00 X-30.8713 Y3.5675  
G01 Z-0.0500 F500   
G01 X-30.9995 Y3.4393  F500   
G01 X-31.1462 Y3.3327  
G01 X-31.3078 Y3.2504  
G01 X-31.4802 Y3.1944  
G01 X-31.6593 Y3.1660  
G01 X-31.8407 Y3.1660  
G01 X-32.0198 Y3.1944  
G01 X-32.1922 Y3.2504  
G01 X-32.3538 Y3.3327  
G01 X-32.5005 Y3.4393  
G01 X-32.6287 Y3.5675  
G01 X-32.7353 Y3.7142  
G01 X-32.8176 Y3.8758  
G01 X-32.8736 Y4.0482  
G01 X-32.9020 Y4.2273  
G01 X-32.9020 Y4.6509  
G01 X-32.9480 Y4.7924  
G01 X-32.9782 Y4.9833  
G01 X-32.9782 Y10.2567 
G01 X-32.9480 Y10.4476 
G01 X-32.8882 Y10.6315 
G01 X-32.8004 Y10.8037 
G01 X-32.8004 Y10.9031 
G01 X-32.7745 Y11.0664 
G01 X-32.7234 Y11.2236 
G01 X-32.6484 Y11.3709 
G01 X-32.5512 Y11.5047 
G01 X-32.4343 Y11.6216 
G01 X-32.3005 Y11.7188 
G01 X-32.1532 Y11.7938 
G01 X-31.9960 Y11.8449 
G01 X-31.8327 Y11.8708 
G01 X-31.6673 Y11.8708 
G01 X-31.5040 Y11.8449 
G01 X-31.3468 Y11.7938 
G01 X-31.1995 Y11.7188 
G01 X-31.0657 Y11.6216 
G01 X-30.9488 Y11.5047 
G01 X-30.8516 Y11.3709 
G01 X-30.7766 Y11.2236 
G01 X-30.7255 Y11.0664 
G01 X-30.6996 Y10.9031 
G01 X-30.6996 Y10.8038 
G01 X-30.6118 Y10.6315 
G01 X-30.5520 Y10.4476 
G01 X-30.5218 Y10.2567 
G01 X-30.5218 Y4.9833  
G01 X-30.5520 Y4.7924  
G01 X-30.5980 Y4.6509  
G01 X-30.5980 Y4.2273  
G01 X-30.6264 Y4.0482  
G01 X-30.6824 Y3.8758  
G01 X-30.7647 Y3.7142  
G01 X-30.8713 Y3.5675  
G00 Z2.0000  
G00 X-33.4113 Y3.5675  
G01 Z-0.0500 F500   
G01 X-33.5395 Y3.4393  F500   
G01 X-33.6862 Y3.3327  
G01 X-33.8478 Y3.2504  
G01 X-34.0202 Y3.1944  
G01 X-34.1993 Y3.1660  
G01 X-34.3807 Y3.1660  
G01 X-34.5598 Y3.1944  
G01 X-34.7322 Y3.2504  
G01 X-34.8938 Y3.3327  
G01 X-35.0405 Y3.4393  
G01 X-35.1687 Y3.5675  
G01 X-35.2753 Y3.7142  
G01 X-35.3576 Y3.8758  
G01 X-35.4136 Y4.0482  
G01 X-35.4420 Y4.2273  
G01 X-35.4420 Y4.6509  
G01 X-35.4880 Y4.7924  
G01 X-35.5182 Y4.9833  
G01 X-35.5182 Y10.2567 
G01 X-35.4880 Y10.4476 
G01 X-35.4282 Y10.6315 
G01 X-35.3404 Y10.8037 
G01 X-35.3404 Y10.9031 
G01 X-35.3145 Y11.0664 
G01 X-35.2634 Y11.2236 
G01 X-35.1884 Y11.3709 
G01 X-35.0912 Y11.5047 
G01 X-34.9743 Y11.6216 
G01 X-34.8405 Y11.7188 
G01 X-34.6932 Y11.7938 
G01 X-34.5360 Y11.8449 
G01 X-34.3727 Y11.8708 
G01 X-34.2073 Y11.8708 
G01 X-34.0440 Y11.8449 
G01 X-33.8868 Y11.7938 
G01 X-33.7395 Y11.7188 
G01 X-33.6057 Y11.6216 
G01 X-33.4888 Y11.5047 
G01 X-33.3916 Y11.3709 
G01 X-33.3166 Y11.2236 
G01 X-33.2655 Y11.0664 
G01 X-33.2396 Y10.9031 
G01 X-33.2396 Y10.8038 
G01 X-33.1518 Y10.6315 
G01 X-33.0920 Y10.4476 
G01 X-33.0618 Y10.2567 
G01 X-33.0618 Y4.9833  
G01 X-33.0920 Y4.7924  
G01 X-33.1380 Y4.6509  
G01 X-33.1380 Y4.2273  
G01 X-33.1664 Y4.0482  
G01 X-33.2224 Y3.8758  
G01 X-33.3047 Y3.7142  
G01 X-33.4113 Y3.5675  
G00 Z2.0000  
G00 X-36.0288 Y8.8153  
G01 Z-0.0500 F500   
G01 X-36.1457 Y8.6984  F500   
G01 X-36.2795 Y8.6012  
G01 X-36.4268 Y8.5262  
G01 X-36.5840 Y8.4751  
G01 X-36.7473 Y8.4492  
G01 X-36.9127 Y8.4492  
G01 X-37.0760 Y8.4751  
G01 X-37.2332 Y8.5262  
G01 X-37.3805 Y8.6012  
G01 X-37.5143 Y8.6984  
G01 X-37.6312 Y8.8153  
G01 X-37.7284 Y8.9491  
G01 X-37.8034 Y9.0964  
G01 X-37.8545 Y9.2536  
G01 X-37.8804 Y9.4169  
G01 X-37.8804 Y9.4735  
G01 X-41.4401 Y13.0332 
G01 X-41.5768 Y13.1699 
G01 X-41.6904 Y13.3263 
G01 X-41.7782 Y13.4985 
G01 X-41.8380 Y13.6824 
G01 X-41.8682 Y13.8733 
G01 X-41.8682 Y25.0195 
G01 X-41.8416 Y25.1187 
G01 X-41.7903 Y25.2077 
G01 X-41.7177 Y25.2803 
G01 X-41.6287 Y25.3316 
G01 X-41.5295 Y25.3582 
G01 X-39.7505 Y25.3582 
G01 X-39.6513 Y25.3316 
G01 X-39.5623 Y25.2803 
G01 X-39.4897 Y25.2077 
G01 X-39.4384 Y25.1187 
G01 X-39.4118 Y25.0195 
G01 X-39.4118 Y15.1982 
G01 X-27.8982 Y15.1982 
G01 X-27.8982 Y17.8767 
G01 X-27.8680 Y18.0676 
G01 X-27.8082 Y18.2515 
G01 X-27.7204 Y18.4237 
G01 X-27.7204 Y18.5231 
G01 X-27.6945 Y18.6864 
G01 X-27.6434 Y18.8436 
G01 X-27.5684 Y18.9909 
G01 X-27.4712 Y19.1247 
G01 X-27.3543 Y19.2416 
G01 X-27.2205 Y19.3388 
G01 X-27.0732 Y19.4138 
G01 X-26.9160 Y19.4649 
G01 X-26.7527 Y19.4908 
G01 X-26.5873 Y19.4908 
G01 X-26.4240 Y19.4649 
G01 X-26.2668 Y19.4138 
G01 X-26.1195 Y19.3388 
G01 X-25.9857 Y19.2416 
G01 X-25.8688 Y19.1247 
G01 X-25.7716 Y18.9909 
G01 X-25.6966 Y18.8436 
G01 X-25.6455 Y18.6864 
G01 X-25.6196 Y18.5231 
G01 X-25.6196 Y18.4238 
G01 X-25.5318 Y18.2515 
G01 X-25.4720 Y18.0676 
G01 X-25.4418 Y17.8767 
G01 X-25.4418 Y13.8733 
G01 X-25.4720 Y13.6824 
G01 X-25.5318 Y13.4985 
G01 X-25.6196 Y13.3263 
G01 X-25.7332 Y13.1699 
G01 X-25.8699 Y13.0332 
G01 X-26.0263 Y12.9195 
G01 X-26.1985 Y12.8318 
G01 X-26.3824 Y12.7720 
G01 X-26.5733 Y12.7418 
G01 X-37.6749 Y12.7418 
G01 X-36.8039 Y11.8708 
G01 X-36.7473 Y11.8708 
G01 X-36.5840 Y11.8449 
G01 X-36.4268 Y11.7938 
G01 X-36.2795 Y11.7188 
G01 X-36.1457 Y11.6216 
G01 X-36.0288 Y11.5047 
G01 X-35.9316 Y11.3709 
G01 X-35.8566 Y11.2236 
G01 X-35.8055 Y11.0664 
G01 X-35.7796 Y10.9031 
G01 X-35.7796 Y10.8038 
G01 X-35.6918 Y10.6315 
G01 X-35.6320 Y10.4476 
G01 X-35.6018 Y10.2567 
G01 X-35.6018 Y10.0633 
G01 X-35.6320 Y9.8724  
G01 X-35.6918 Y9.6885  
G01 X-35.7796 Y9.5163  
G01 X-35.7796 Y9.4169  
G01 X-35.8055 Y9.2536  
G01 X-35.8566 Y9.0964  
G01 X-35.9316 Y8.9491  
G01 X-36.0288 Y8.8153  
G00 Z2.0000  
G00 X-36.0288 Y16.4353 
G01 Z-0.0500 F500   
G01 X-36.1457 Y16.3184 F500   
G01 X-36.2795 Y16.2212 
G01 X-36.4268 Y16.1462 
G01 X-36.5840 Y16.0951 
G01 X-36.7473 Y16.0692 
G01 X-36.9127 Y16.0692 
G01 X-37.0760 Y16.0951 
G01 X-37.2332 Y16.1462 
G01 X-37.3805 Y16.2212 
G01 X-37.5143 Y16.3184 
G01 X-37.6312 Y16.4353 
G01 X-37.7284 Y16.5691 
G01 X-37.8034 Y16.7164 
G01 X-37.8545 Y16.8736 
G01 X-37.8804 Y17.0369 
G01 X-37.8804 Y17.1362 
G01 X-37.9682 Y17.3085 
G01 X-38.0280 Y17.4924 
G01 X-38.0582 Y17.6833 
G01 X-38.0582 Y25.0195 
G01 X-38.0316 Y25.1187 
G01 X-37.9803 Y25.2077 
G01 X-37.9077 Y25.2803 
G01 X-37.8187 Y25.3316 
G01 X-37.7195 Y25.3582 
G01 X-35.9405 Y25.3582 
G01 X-35.8413 Y25.3316 
G01 X-35.7523 Y25.2803 
G01 X-35.6797 Y25.2077 
G01 X-35.6284 Y25.1187 
G01 X-35.6018 Y25.0195 
G01 X-35.6018 Y17.6833 
G01 X-35.6320 Y17.4924 
G01 X-35.6918 Y17.3085 
G01 X-35.7796 Y17.1363 
G01 X-35.7796 Y17.0369 
G01 X-35.8055 Y16.8736 
G01 X-35.8566 Y16.7164 
G01 X-35.9316 Y16.5691 
G01 X-36.0288 Y16.4353 
G00 Z2.0000  
G00 X-35.0912 Y16.4353 
G01 Z-0.0500 F500   
G01 X-35.1884 Y16.5691 F500   
G01 X-35.2634 Y16.7164 
G01 X-35.3145 Y16.8736 
G01 X-35.3404 Y17.0369 
G01 X-35.3404 Y17.1362 
G01 X-35.4282 Y17.3085 
G01 X-35.4880 Y17.4924 
G01 X-35.5182 Y17.6833 
G01 X-35.5182 Y25.4418 
G01 X-50.8418 Y25.4418 
G01 X-50.8418 Y17.6833 
G01 X-50.8720 Y17.4924 
G01 X-50.9318 Y17.3085 
G01 X-51.0196 Y17.1363 
G01 X-51.0196 Y17.0369 
G01 X-51.0455 Y16.8736 
G01 X-51.0966 Y16.7164 
G01 X-51.1716 Y16.5691 
G01 X-51.2688 Y16.4353 
G01 X-51.3857 Y16.3184 
G01 X-51.5195 Y16.2212 
G01 X-51.6668 Y16.1462 
G01 X-51.8240 Y16.0951 
G01 X-51.9873 Y16.0692 
G01 X-52.1527 Y16.0692 
G01 X-52.3160 Y16.0951 
G01 X-52.4732 Y16.1462 
G01 X-52.6205 Y16.2212 
G01 X-52.7543 Y16.3184 
G01 X-52.8712 Y16.4353 
G01 X-52.9684 Y16.5691 
G01 X-53.0434 Y16.7164 
G01 X-53.0945 Y16.8736 
G01 X-53.1204 Y17.0369 
G01 X-53.1204 Y17.1362 
G01 X-53.2082 Y17.3085 
G01 X-53.2680 Y17.4924 
G01 X-53.2982 Y17.6833 
G01 X-53.2982 Y25.4418 
G01 X-66.0818 Y25.4418 
G01 X-66.0818 Y17.6833 
G01 X-66.1120 Y17.4924 
G01 X-66.1718 Y17.3085 
G01 X-66.2596 Y17.1363 
G01 X-66.2596 Y17.0369 
G01 X-66.2855 Y16.8736 
G01 X-66.3366 Y16.7164 
G01 X-66.4116 Y16.5691 
G01 X-66.5088 Y16.4353 
G01 X-66.6257 Y16.3184 
G01 X-66.7595 Y16.2212 
G01 X-66.9068 Y16.1462 
G01 X-67.0640 Y16.0951 
G01 X-67.2273 Y16.0692 
G01 X-67.3927 Y16.0692 
G01 X-67.5560 Y16.0951 
G01 X-67.7132 Y16.1462 
G01 X-67.8605 Y16.2212 
G01 X-67.9943 Y16.3184 
G01 X-68.1112 Y16.4353 
G01 X-68.2084 Y16.5691 
G01 X-68.2834 Y16.7164 
G01 X-68.3345 Y16.8736 
G01 X-68.3604 Y17.0369 
G01 X-68.3604 Y17.1362 
G01 X-68.4482 Y17.3085 
G01 X-68.5080 Y17.4924 
G01 X-68.5382 Y17.6833 
G01 X-68.5382 Y25.4418 
G01 X-78.8367 Y25.4418 
G01 X-79.0276 Y25.4720 
G01 X-79.1690 Y25.5180 
G01 X-79.5927 Y25.5180 
G01 X-79.7718 Y25.5464 
G01 X-79.9442 Y25.6024 
G01 X-80.1058 Y25.6847 
G01 X-80.2525 Y25.7913 
G01 X-80.3807 Y25.9195 
G01 X-80.4873 Y26.0662 
G01 X-80.5696 Y26.2278 
G01 X-80.6256 Y26.4002 
G01 X-80.6540 Y26.5793 
G01 X-80.6540 Y26.7607 
G01 X-80.6256 Y26.9398 
G01 X-80.5696 Y27.1122 
G01 X-80.4873 Y27.2738 
G01 X-80.3807 Y27.4205 
G01 X-80.2525 Y27.5487 
G01 X-80.1058 Y27.6553 
G01 X-79.9442 Y27.7376 
G01 X-79.7718 Y27.7936 
G01 X-79.5927 Y27.8220 
G01 X-79.1690 Y27.8220 
G01 X-79.0276 Y27.8680 
G01 X-78.8367 Y27.8982 
G01 X-7.5233 Y27.8982 
G01 X-7.3324 Y27.8680 
G01 X-7.1909 Y27.8220 
G01 X-6.7673 Y27.8220 
G01 X-6.5882 Y27.7936 
G01 X-6.4158 Y27.7376 
G01 X-6.2542 Y27.6553 
G01 X-6.1075 Y27.5487 
G01 X-5.9793 Y27.4205 
G01 X-5.8727 Y27.2738 
G01 X-5.7904 Y27.1122 
G01 X-5.7344 Y26.9398 
G01 X-5.7060 Y26.7607 
G01 X-5.7060 Y26.5793 
G01 X-5.7344 Y26.4002 
G01 X-5.7904 Y26.2278 
G01 X-5.8727 Y26.0662 
G01 X-5.9793 Y25.9195 
G01 X-6.1075 Y25.7913 
G01 X-6.2542 Y25.6847 
G01 X-6.4158 Y25.6024 
G01 X-6.5882 Y25.5464 
G01 X-6.7673 Y25.5180 
G01 X-7.1909 Y25.5180 
G01 X-7.3324 Y25.4720 
G01 X-7.5233 Y25.4418 
G01 X-17.8218 Y25.4418 
G01 X-17.8218 Y17.6833 
G01 X-17.8520 Y17.4924 
G01 X-17.9118 Y17.3085 
G01 X-17.9995 Y17.1363 
G01 X-17.9996 Y17.0369 
G01 X-18.0255 Y16.8736 
G01 X-18.0766 Y16.7164 
G01 X-18.1516 Y16.5691 
G01 X-18.2488 Y16.4353 
G01 X-18.3657 Y16.3184 
G01 X-18.4995 Y16.2212 
G01 X-18.6468 Y16.1462 
G01 X-18.8040 Y16.0951 
G01 X-18.9673 Y16.0692 
G01 X-19.1327 Y16.0692 
G01 X-19.2960 Y16.0951 
G01 X-19.4532 Y16.1462 
G01 X-19.6005 Y16.2212 
G01 X-19.7343 Y16.3184 
G01 X-19.8512 Y16.4353 
G01 X-19.9484 Y16.5691 
G01 X-20.0234 Y16.7164 
G01 X-20.0745 Y16.8736 
G01 X-20.1004 Y17.0369 
G01 X-20.1004 Y17.1362 
G01 X-20.1882 Y17.3085 
G01 X-20.2480 Y17.4924 
G01 X-20.2782 Y17.6833 
G01 X-20.2782 Y25.4418 
G01 X-33.0618 Y25.4418 
G01 X-33.0618 Y17.6833 
G01 X-33.0920 Y17.4924 
G01 X-33.1518 Y17.3085 
G01 X-33.2396 Y17.1363 
G01 X-33.2396 Y17.0369 
G01 X-33.2655 Y16.8736 
G01 X-33.3166 Y16.7164 
G01 X-33.3916 Y16.5691 
G01 X-33.4888 Y16.4353 
G01 X-33.6057 Y16.3184 
G01 X-33.7395 Y16.2212 
G01 X-33.8868 Y16.1462 
G01 X-34.0440 Y16.0951 
G01 X-34.2073 Y16.0692 
G01 X-34.3727 Y16.0692 
G01 X-34.5360 Y16.0951 
G01 X-34.6932 Y16.1462 
G01 X-34.8405 Y16.2212 
G01 X-34.9743 Y16.3184 
G01 X-35.0912 Y16.4353 
G00 Z2.0000  
G00 X-32.5512 Y16.4353 
G01 Z-0.0500 F500   
G01 X-32.6484 Y16.5691 F500   
G01 X-32.7234 Y16.7164 
G01 X-32.7745 Y16.8736 
G01 X-32.8004 Y17.0369 
G01 X-32.8004 Y17.1362 
G01 X-32.8882 Y17.3085 
G01 X-32.9480 Y17.4924 
G01 X-32.9782 Y17.6833 
G01 X-32.9782 Y25.0195 
G01 X-32.9516 Y25.1187 
G01 X-32.9003 Y25.2077 
G01 X-32.8277 Y25.2803 
G01 X-32.7387 Y25.3316 
G01 X-32.6395 Y25.3582 
G01 X-30.8605 Y25.3582 
G01 X-30.7613 Y25.3316 
G01 X-30.6723 Y25.2803 
G01 X-30.5997 Y25.2077 
G01 X-30.5484 Y25.1187 
G01 X-30.5218 Y25.0195 
G01 X-30.5218 Y17.6833 
G01 X-30.5520 Y17.4924 
G01 X-30.6118 Y17.3085 
G01 X-30.6995 Y17.1363 
G01 X-30.6996 Y17.0369 
G01 X-30.7255 Y16.8736 
G01 X-30.7766 Y16.7164 
G01 X-30.8516 Y16.5691 
G01 X-30.9488 Y16.4353 
G01 X-31.0657 Y16.3184 
G01 X-31.1995 Y16.2212 
G01 X-31.3468 Y16.1462 
G01 X-31.5040 Y16.0951 
G01 X-31.6673 Y16.0692 
G01 X-31.8327 Y16.0692 
G01 X-31.9960 Y16.0951 
G01 X-32.1532 Y16.1462 
G01 X-32.3005 Y16.2212 
G01 X-32.4343 Y16.3184 
G01 X-32.5512 Y16.4353 
G00 Z2.0000  
G00 X-30.0112 Y16.4353 
G01 Z-0.0500 F500   
G01 X-30.1084 Y16.5691 F500   
G01 X-30.1834 Y16.7164 
G01 X-30.2345 Y16.8736 
G01 X-30.2604 Y17.0369 
G01 X-30.2604 Y17.1362 
G01 X-30.3482 Y17.3085 
G01 X-30.4080 Y17.4924 
G01 X-30.4382 Y17.6833 
G01 X-30.4382 Y25.0195 
G01 X-30.4116 Y25.1187 
G01 X-30.3603 Y25.2077 
G01 X-30.2877 Y25.2803 
G01 X-30.1987 Y25.3316 
G01 X-30.0995 Y25.3582 
G01 X-28.3205 Y25.3582 
G01 X-28.2213 Y25.3316 
G01 X-28.1323 Y25.2803 
G01 X-28.0597 Y25.2077 
G01 X-28.0084 Y25.1187 
G01 X-27.9818 Y25.0195 
G01 X-27.9818 Y17.6833 
G01 X-28.0120 Y17.4924 
G01 X-28.0718 Y17.3085 
G01 X-28.1595 Y17.1363 
G01 X-28.1596 Y17.0369 
G01 X-28.1855 Y16.8736 
G01 X-28.2366 Y16.7164 
G01 X-28.3116 Y16.5691 
G01 X-28.4088 Y16.4353 
G01 X-28.5257 Y16.3184 
G01 X-28.6595 Y16.2212 
G01 X-28.8068 Y16.1462 
G01 X-28.9640 Y16.0951 
G01 X-29.1273 Y16.0692 
G01 X-29.2927 Y16.0692 
G01 X-29.4560 Y16.0951 
G01 X-29.6132 Y16.1462 
G01 X-29.7605 Y16.2212 
G01 X-29.8943 Y16.3184 
G01 X-30.0112 Y16.4353 
G00 Z2.0000  
G00 X-24.9312 Y16.4353 
G01 Z-0.0500 F500   
G01 X-25.0284 Y16.5691 F500   
G01 X-25.1034 Y16.7164 
G01 X-25.1545 Y16.8736 
G01 X-25.1804 Y17.0369 
G01 X-25.1804 Y17.1362 
G01 X-25.2682 Y17.3085 
G01 X-25.3280 Y17.4924 
G01 X-25.3582 Y17.6833 
G01 X-25.3582 Y21.2095 
G01 X-25.3316 Y21.3087 
G01 X-25.2803 Y21.3977 
G01 X-25.2077 Y21.4703 
G01 X-25.1187 Y21.5216 
G01 X-25.0195 Y21.5482 
G01 X-23.2405 Y21.5482 
G01 X-23.1413 Y21.5216 
G01 X-23.0523 Y21.4703 
G01 X-22.9797 Y21.3977 
G01 X-22.9284 Y21.3087 
G01 X-22.9018 Y21.2095 
G01 X-22.9018 Y17.6833 
G01 X-22.9320 Y17.4924 
G01 X-22.9918 Y17.3085 
G01 X-23.0796 Y17.1363 
G01 X-23.0796 Y17.0369 
G01 X-23.1055 Y16.8736 
G01 X-23.1566 Y16.7164 
G01 X-23.2316 Y16.5691 
G01 X-23.3288 Y16.4353 
G01 X-23.4457 Y16.3184 
G01 X-23.5795 Y16.2212 
G01 X-23.7268 Y16.1462 
G01 X-23.8840 Y16.0951 
G01 X-24.0473 Y16.0692 
G01 X-24.2127 Y16.0692 
G01 X-24.3760 Y16.0951 
G01 X-24.5332 Y16.1462 
G01 X-24.6805 Y16.2212 
G01 X-24.8143 Y16.3184 
G01 X-24.9312 Y16.4353 
G00 Z2.0000  
G00 X-48.7299 Y14.9068 
G01 Z-0.0500 F500   
G01 X-48.5932 Y14.7701 F500   
G01 X-48.4796 Y14.6137 
G01 X-48.3918 Y14.4415 
G01 X-48.3320 Y14.2576 
G01 X-48.3018 Y14.0667 
G01 X-48.3018 Y4.9833  
G01 X-48.3320 Y4.7924  
G01 X-48.3780 Y4.6509  
G01 X-48.3780 Y4.2273  
G01 X-48.4064 Y4.0482  
G01 X-48.4624 Y3.8758  
G01 X-48.5447 Y3.7142  
G01 X-48.6513 Y3.5675  
G01 X-48.7795 Y3.4393  
G01 X-48.9262 Y3.3327  
G01 X-49.0878 Y3.2504  
G01 X-49.2602 Y3.1944  
G01 X-49.4393 Y3.1660  
G01 X-49.6207 Y3.1660  
G01 X-49.7998 Y3.1944  
G01 X-49.9722 Y3.2504  
G01 X-50.1338 Y3.3327  
G01 X-50.2805 Y3.4393  
G01 X-50.4087 Y3.5675  
G01 X-50.5153 Y3.7142  
G01 X-50.5976 Y3.8758  
G01 X-50.6536 Y4.0482  
G01 X-50.6820 Y4.2273  
G01 X-50.6820 Y4.6509  
G01 X-50.7280 Y4.7924  
G01 X-50.7582 Y4.9833  
G01 X-50.7582 Y12.7418 
G01 X-54.7067 Y12.7418 
G01 X-54.8976 Y12.7720 
G01 X-55.0815 Y12.8318 
G01 X-55.2537 Y12.9195 
G01 X-55.4101 Y13.0332 
G01 X-55.5468 Y13.1699 
G01 X-55.6604 Y13.3263 
G01 X-55.7482 Y13.4985 
G01 X-55.8080 Y13.6824 
G01 X-55.8382 Y13.8733 
G01 X-55.8382 Y17.8767 
G01 X-55.8080 Y18.0676 
G01 X-55.7482 Y18.2515 
G01 X-55.6604 Y18.4237 
G01 X-55.6604 Y18.5231 
G01 X-55.6345 Y18.6864 
G01 X-55.5834 Y18.8436 
G01 X-55.5084 Y18.9909 
G01 X-55.4112 Y19.1247 
G01 X-55.2943 Y19.2416 
G01 X-55.1605 Y19.3388 
G01 X-55.0132 Y19.4138 
G01 X-54.8560 Y19.4649 
G01 X-54.6927 Y19.4908 
G01 X-54.5273 Y19.4908 
G01 X-54.3640 Y19.4649 
G01 X-54.2068 Y19.4138 
G01 X-54.0595 Y19.3388 
G01 X-53.9257 Y19.2416 
G01 X-53.8088 Y19.1247 
G01 X-53.7116 Y18.9909 
G01 X-53.6366 Y18.8436 
G01 X-53.5855 Y18.6864 
G01 X-53.5596 Y18.5231 
G01 X-53.5596 Y18.4238 
G01 X-53.4718 Y18.2515 
G01 X-53.4120 Y18.0676 
G01 X-53.3818 Y17.8767 
G01 X-53.3818 Y15.1982 
G01 X-49.4333 Y15.1982 
G01 X-49.2424 Y15.1680 
G01 X-49.0585 Y15.1082 
G01 X-48.8863 Y15.0204 
G01 X-48.7299 Y14.9068 
G00 Z2.0000  
G00 X-51.3857 Y11.6216 
G01 Z-0.0500 F500   
G01 X-51.2688 Y11.5047 F500   
G01 X-51.1716 Y11.3709 
G01 X-51.0966 Y11.2236 
G01 X-51.0455 Y11.0664 
G01 X-51.0196 Y10.9031 
G01 X-51.0196 Y10.8038 
G01 X-50.9318 Y10.6315 
G01 X-50.8720 Y10.4476 
G01 X-50.8418 Y10.2567 
G01 X-50.8418 Y4.9833  
G01 X-50.8720 Y4.7924  
G01 X-50.9180 Y4.6510  
G01 X-50.9180 Y4.2273  
G01 X-50.9464 Y4.0482  
G01 X-51.0024 Y3.8758  
G01 X-51.0847 Y3.7142  
G01 X-51.1913 Y3.5675  
G01 X-51.3195 Y3.4393  
G01 X-51.4662 Y3.3327  
G01 X-51.6278 Y3.2504  
G01 X-51.8002 Y3.1944  
G01 X-51.9793 Y3.1660  
G01 X-52.1607 Y3.1660  
G01 X-52.3398 Y3.1944  
G01 X-52.5122 Y3.2504  
G01 X-52.6738 Y3.3327  
G01 X-52.8205 Y3.4393  
G01 X-52.9487 Y3.5675  
G01 X-53.0553 Y3.7142  
G01 X-53.1376 Y3.8758  
G01 X-53.1936 Y4.0482  
G01 X-53.2220 Y4.2273  
G01 X-53.2220 Y4.6510  
G01 X-53.2680 Y4.7924  
G01 X-53.2982 Y4.9833  
G01 X-53.2982 Y10.2567 
G01 X-53.2680 Y10.4476 
G01 X-53.2082 Y10.6315 
G01 X-53.1204 Y10.8037 
G01 X-53.1204 Y10.9031 
G01 X-53.0945 Y11.0664 
G01 X-53.0434 Y11.2236 
G01 X-52.9684 Y11.3709 
G01 X-52.8712 Y11.5047 
G01 X-52.7543 Y11.6216 
G01 X-52.6205 Y11.7188 
G01 X-52.4732 Y11.7938 
G01 X-52.3160 Y11.8449 
G01 X-52.1527 Y11.8708 
G01 X-51.9873 Y11.8708 
G01 X-51.8240 Y11.8449 
G01 X-51.6668 Y11.7938 
G01 X-51.5195 Y11.7188 
G01 X-51.3857 Y11.6216 
G00 Z2.0000  
G00 X-53.9257 Y11.6216 
G01 Z-0.0500 F500   
G01 X-53.8088 Y11.5047 F500   
G01 X-53.7116 Y11.3709 
G01 X-53.6366 Y11.2236 
G01 X-53.5855 Y11.0664 
G01 X-53.5596 Y10.9031 
G01 X-53.5596 Y10.8038 
G01 X-53.4718 Y10.6315 
G01 X-53.4120 Y10.4476 
G01 X-53.3818 Y10.2567 
G01 X-53.3818 Y4.9833  
G01 X-53.4120 Y4.7924  
G01 X-53.4580 Y4.6510  
G01 X-53.4580 Y4.2273  
G01 X-53.4864 Y4.0482  
G01 X-53.5424 Y3.8758  
G01 X-53.6247 Y3.7142  
G01 X-53.7313 Y3.5675  
G01 X-53.8595 Y3.4393  
G01 X-54.0062 Y3.3327  
G01 X-54.1678 Y3.2504  
G01 X-54.3402 Y3.1944  
G01 X-54.5193 Y3.1660  
G01 X-54.7007 Y3.1660  
G01 X-54.8798 Y3.1944  
G01 X-55.0522 Y3.2504  
G01 X-55.2138 Y3.3327  
G01 X-55.3605 Y3.4393  
G01 X-55.4887 Y3.5675  
G01 X-55.5953 Y3.7142  
G01 X-55.6776 Y3.8758  
G01 X-55.7336 Y4.0482  
G01 X-55.7620 Y4.2273  
G01 X-55.7620 Y4.6510  
G01 X-55.8080 Y4.7924  
G01 X-55.8382 Y4.9833  
G01 X-55.8382 Y10.2567 
G01 X-55.8080 Y10.4476 
G01 X-55.7482 Y10.6315 
G01 X-55.6604 Y10.8037 
G01 X-55.6604 Y10.9031 
G01 X-55.6345 Y11.0664 
G01 X-55.5834 Y11.2236 
G01 X-55.5084 Y11.3709 
G01 X-55.4112 Y11.5047 
G01 X-55.2943 Y11.6216 
G01 X-55.1605 Y11.7188 
G01 X-55.0132 Y11.7938 
G01 X-54.8560 Y11.8449 
G01 X-54.6927 Y11.8708 
G01 X-54.5273 Y11.8708 
G01 X-54.3640 Y11.8449 
G01 X-54.2068 Y11.7938 
G01 X-54.0595 Y11.7188 
G01 X-53.9257 Y11.6216 
G00 Z2.0000  
G00 X-56.4657 Y11.6216 
G01 Z-0.0500 F500   
G01 X-56.3488 Y11.5047 F500   
G01 X-56.2516 Y11.3709 
G01 X-56.1766 Y11.2236 
G01 X-56.1255 Y11.0664 
G01 X-56.0996 Y10.9031 
G01 X-56.0996 Y10.8038 
G01 X-56.0118 Y10.6315 
G01 X-55.9520 Y10.4476 
G01 X-55.9218 Y10.2567 
G01 X-55.9218 Y4.9833  
G01 X-55.9520 Y4.7924  
G01 X-55.9980 Y4.6510  
G01 X-55.9980 Y4.2273  
G01 X-56.0264 Y4.0482  
G01 X-56.0824 Y3.8758  
G01 X-56.1647 Y3.7142  
G01 X-56.2713 Y3.5675  
G01 X-56.3995 Y3.4393  
G01 X-56.5462 Y3.3327  
G01 X-56.7078 Y3.2504  
G01 X-56.8802 Y3.1944  
G01 X-57.0593 Y3.1660  
G01 X-57.2407 Y3.1660  
G01 X-57.4198 Y3.1944  
G01 X-57.5922 Y3.2504  
G01 X-57.7538 Y3.3327  
G01 X-57.9005 Y3.4393  
G01 X-58.0287 Y3.5675  
G01 X-58.1353 Y3.7142  
G01 X-58.2176 Y3.8758  
G01 X-58.2736 Y4.0482  
G01 X-58.3020 Y4.2273  
G01 X-58.3020 Y4.6510  
G01 X-58.3480 Y4.7924  
G01 X-58.3782 Y4.9833  
G01 X-58.3782 Y10.2567 
G01 X-58.3480 Y10.4476 
G01 X-58.2882 Y10.6315 
G01 X-58.2004 Y10.8037 
G01 X-58.2004 Y10.9031 
G01 X-58.1745 Y11.0664 
G01 X-58.1234 Y11.2236 
G01 X-58.0484 Y11.3709 
G01 X-57.9512 Y11.5047 
G01 X-57.8343 Y11.6216 
G01 X-57.7005 Y11.7188 
G01 X-57.5532 Y11.7938 
G01 X-57.3960 Y11.8449 
G01 X-57.2327 Y11.8708 
G01 X-57.0673 Y11.8708 
G01 X-56.9040 Y11.8449 
G01 X-56.7468 Y11.7938 
G01 X-56.5995 Y11.7188 
G01 X-56.4657 Y11.6216 
G00 Z2.0000  
G00 X-59.0057 Y11.6216 
G01 Z-0.0500 F500   
G01 X-58.8888 Y11.5047 F500   
G01 X-58.7916 Y11.3709 
G01 X-58.7166 Y11.2236 
G01 X-58.6655 Y11.0664 
G01 X-58.6396 Y10.9031 
G01 X-58.6396 Y10.8038 
G01 X-58.5518 Y10.6315 
G01 X-58.4920 Y10.4476 
G01 X-58.4618 Y10.2567 
G01 X-58.4618 Y4.9833  
G01 X-58.4920 Y4.7924  
G01 X-58.5380 Y4.6510  
G01 X-58.5380 Y4.2273  
G01 X-58.5664 Y4.0482  
G01 X-58.6224 Y3.8758  
G01 X-58.7047 Y3.7142  
G01 X-58.8113 Y3.5675  
G01 X-58.9395 Y3.4393  
G01 X-59.0862 Y3.3327  
G01 X-59.2478 Y3.2504  
G01 X-59.4202 Y3.1944  
G01 X-59.5993 Y3.1660  
G01 X-59.7807 Y3.1660  
G01 X-59.9598 Y3.1944  
G01 X-60.1322 Y3.2504  
G01 X-60.2938 Y3.3327  
G01 X-60.4405 Y3.4393  
G01 X-60.5687 Y3.5675  
G01 X-60.6753 Y3.7142  
G01 X-60.7576 Y3.8758  
G01 X-60.8136 Y4.0482  
G01 X-60.8420 Y4.2273  
G01 X-60.8420 Y4.6510  
G01 X-60.8880 Y4.7924  
G01 X-60.9182 Y4.9833  
G01 X-60.9182 Y10.2567 
G01 X-60.8880 Y10.4476 
G01 X-60.8282 Y10.6315 
G01 X-60.7404 Y10.8037 
G01 X-60.7404 Y10.9031 
G01 X-60.7145 Y11.0664 
G01 X-60.6634 Y11.2236 
G01 X-60.5884 Y11.3709 
G01 X-60.4912 Y11.5047 
G01 X-60.3743 Y11.6216 
G01 X-60.2405 Y11.7188 
G01 X-60.0932 Y11.7938 
G01 X-59.9360 Y11.8449 
G01 X-59.7727 Y11.8708 
G01 X-59.6073 Y11.8708 
G01 X-59.4440 Y11.8449 
G01 X-59.2868 Y11.7938 
G01 X-59.1395 Y11.7188 
G01 X-59.0057 Y11.6216 
G00 Z2.0000  
G00 X-59.0463 Y12.9195 
G01 Z-0.0500 F500   
G01 X-59.2185 Y12.8318 F500   
G01 X-59.4024 Y12.7720 
G01 X-59.5933 Y12.7418 
G01 X-70.6949 Y12.7418 
G01 X-69.8239 Y11.8708 
G01 X-69.7673 Y11.8708 
G01 X-69.6040 Y11.8449 
G01 X-69.4468 Y11.7938 
G01 X-69.2995 Y11.7188 
G01 X-69.1657 Y11.6216 
G01 X-69.0488 Y11.5047 
G01 X-68.9516 Y11.3709 
G01 X-68.8766 Y11.2236 
G01 X-68.8255 Y11.0664 
G01 X-68.7996 Y10.9031 
G01 X-68.7996 Y10.8038 
G01 X-68.7118 Y10.6315 
G01 X-68.6520 Y10.4476 
G01 X-68.6218 Y10.2567 
G01 X-68.6218 Y10.0633 
G01 X-68.6520 Y9.8724  
G01 X-68.7118 Y9.6885  
G01 X-68.7995 Y9.5163  
G01 X-68.7996 Y9.4169  
G01 X-68.8255 Y9.2536  
G01 X-68.8766 Y9.0964  
G01 X-68.9516 Y8.9491  
G01 X-69.0488 Y8.8153  
G01 X-69.1657 Y8.6984  
G01 X-69.2995 Y8.6012  
G01 X-69.4468 Y8.5262  
G01 X-69.6040 Y8.4751  
G01 X-69.7673 Y8.4492  
G01 X-69.9327 Y8.4492  
G01 X-70.0960 Y8.4751  
G01 X-70.2532 Y8.5262  
G01 X-70.4005 Y8.6012  
G01 X-70.5343 Y8.6984  
G01 X-70.6512 Y8.8153  
G01 X-70.7484 Y8.9491  
G01 X-70.8234 Y9.0964  
G01 X-70.8745 Y9.2536  
G01 X-70.9004 Y9.4169  
G01 X-70.9004 Y9.4735  
G01 X-74.4601 Y13.0332 
G01 X-74.5968 Y13.1699 
G01 X-74.7104 Y13.3263 
G01 X-74.7982 Y13.4985 
G01 X-74.8580 Y13.6824 
G01 X-74.8882 Y13.8733 
G01 X-74.8882 Y25.0195 
G01 X-74.8616 Y25.1187 
G01 X-74.8103 Y25.2077 
G01 X-74.7377 Y25.2803 
G01 X-74.6487 Y25.3316 
G01 X-74.5495 Y25.3582 
G01 X-72.7705 Y25.3582 
G01 X-72.6713 Y25.3316 
G01 X-72.5823 Y25.2803 
G01 X-72.5097 Y25.2077 
G01 X-72.4584 Y25.1187 
G01 X-72.4318 Y25.0195 
G01 X-72.4318 Y15.1982 
G01 X-60.9182 Y15.1982 
G01 X-60.9182 Y17.8767 
G01 X-60.8880 Y18.0676 
G01 X-60.8282 Y18.2515 
G01 X-60.7404 Y18.4237 
G01 X-60.7404 Y18.5231 
G01 X-60.7145 Y18.6864 
G01 X-60.6634 Y18.8436 
G01 X-60.5884 Y18.9909 
G01 X-60.4912 Y19.1247 
G01 X-60.3743 Y19.2416 
G01 X-60.2405 Y19.3388 
G01 X-60.0932 Y19.4138 
G01 X-59.9360 Y19.4649 
G01 X-59.7727 Y19.4908 
G01 X-59.6073 Y19.4908 
G01 X-59.4440 Y19.4649 
G01 X-59.2868 Y19.4138 
G01 X-59.1395 Y19.3388 
G01 X-59.0057 Y19.2416 
G01 X-58.8888 Y19.1247 
G01 X-58.7916 Y18.9909 
G01 X-58.7166 Y18.8436 
G01 X-58.6655 Y18.6864 
G01 X-58.6396 Y18.5231 
G01 X-58.6396 Y18.4238 
G01 X-58.5518 Y18.2515 
G01 X-58.4920 Y18.0676 
G01 X-58.4618 Y17.8767 
G01 X-58.4618 Y13.8733 
G01 X-58.4920 Y13.6824 
G01 X-58.5518 Y13.4985 
G01 X-58.6395 Y13.3263 
G01 X-58.7532 Y13.1699 
G01 X-58.8899 Y13.0332 
G01 X-59.0463 Y12.9195 
G00 Z2.0000  
G00 X-61.5457 Y11.6216 
G01 Z-0.0500 F500   
G01 X-61.4288 Y11.5047 F500   
G01 X-61.3316 Y11.3709 
G01 X-61.2566 Y11.2236 
G01 X-61.2055 Y11.0664 
G01 X-61.1796 Y10.9031 
G01 X-61.1796 Y10.8038 
G01 X-61.0918 Y10.6315 
G01 X-61.0320 Y10.4476 
G01 X-61.0018 Y10.2567 
G01 X-61.0018 Y4.9833  
G01 X-61.0320 Y4.7924  
G01 X-61.0780 Y4.6510  
G01 X-61.0780 Y4.2273  
G01 X-61.1064 Y4.0482  
G01 X-61.1624 Y3.8758  
G01 X-61.2447 Y3.7142  
G01 X-61.3513 Y3.5675  
G01 X-61.4795 Y3.4393  
G01 X-61.6262 Y3.3327  
G01 X-61.7878 Y3.2504  
G01 X-61.9602 Y3.1944  
G01 X-62.1393 Y3.1660  
G01 X-62.3207 Y3.1660  
G01 X-62.4998 Y3.1944  
G01 X-62.6722 Y3.2504  
G01 X-62.8338 Y3.3327  
G01 X-62.9805 Y3.4393  
G01 X-63.1087 Y3.5675  
G01 X-63.2153 Y3.7142  
G01 X-63.2976 Y3.8758  
G01 X-63.3536 Y4.0482  
G01 X-63.3820 Y4.2273  
G01 X-63.3820 Y4.6510  
G01 X-63.4280 Y4.7924  
G01 X-63.4582 Y4.9833  
G01 X-63.4582 Y10.2567 
G01 X-63.4280 Y10.4476 
G01 X-63.3682 Y10.6315 
G01 X-63.2804 Y10.8037 
G01 X-63.2804 Y10.9031 
G01 X-63.2545 Y11.0664 
G01 X-63.2034 Y11.2236 
G01 X-63.1284 Y11.3709 
G01 X-63.0312 Y11.5047 
G01 X-62.9143 Y11.6216 
G01 X-62.7805 Y11.7188 
G01 X-62.6332 Y11.7938 
G01 X-62.4760 Y11.8449 
G01 X-62.3127 Y11.8708 
G01 X-62.1473 Y11.8708 
G01 X-61.9840 Y11.8449 
G01 X-61.8268 Y11.7938 
G01 X-61.6795 Y11.7188 
G01 X-61.5457 Y11.6216 
G00 Z2.0000  
G00 X-64.0857 Y11.6216 
G01 Z-0.0500 F500   
G01 X-63.9688 Y11.5047 F500   
G01 X-63.8716 Y11.3709 
G01 X-63.7966 Y11.2236 
G01 X-63.7455 Y11.0664 
G01 X-63.7196 Y10.9031 
G01 X-63.7196 Y10.8038 
G01 X-63.6318 Y10.6315 
G01 X-63.5720 Y10.4476 
G01 X-63.5418 Y10.2567 
G01 X-63.5418 Y4.9833  
G01 X-63.5720 Y4.7924  
G01 X-63.6180 Y4.6510  
G01 X-63.6180 Y4.2273  
G01 X-63.6464 Y4.0482  
G01 X-63.7024 Y3.8758  
G01 X-63.7847 Y3.7142  
G01 X-63.8913 Y3.5675  
G01 X-64.0195 Y3.4393  
G01 X-64.1662 Y3.3327  
G01 X-64.3278 Y3.2504  
G01 X-64.5002 Y3.1944  
G01 X-64.6793 Y3.1660  
G01 X-64.8607 Y3.1660  
G01 X-65.0398 Y3.1944  
G01 X-65.2122 Y3.2504  
G01 X-65.3738 Y3.3327  
G01 X-65.5205 Y3.4393  
G01 X-65.6487 Y3.5675  
G01 X-65.7553 Y3.7142  
G01 X-65.8376 Y3.8758  
G01 X-65.8936 Y4.0482  
G01 X-65.9220 Y4.2273  
G01 X-65.9220 Y4.6510  
G01 X-65.9680 Y4.7924  
G01 X-65.9982 Y4.9833  
G01 X-65.9982 Y10.2567 
G01 X-65.9680 Y10.4476 
G01 X-65.9082 Y10.6315 
G01 X-65.8204 Y10.8037 
G01 X-65.8204 Y10.9031 
G01 X-65.7945 Y11.0664 
G01 X-65.7434 Y11.2236 
G01 X-65.6684 Y11.3709 
G01 X-65.5712 Y11.5047 
G01 X-65.4543 Y11.6216 
G01 X-65.3205 Y11.7188 
G01 X-65.1732 Y11.7938 
G01 X-65.0160 Y11.8449 
G01 X-64.8527 Y11.8708 
G01 X-64.6873 Y11.8708 
G01 X-64.5240 Y11.8449 
G01 X-64.3668 Y11.7938 
G01 X-64.2195 Y11.7188 
G01 X-64.0857 Y11.6216 
G00 Z2.0000  
G00 X-66.6257 Y11.6216 
G01 Z-0.0500 F500   
G01 X-66.5088 Y11.5047 F500   
G01 X-66.4116 Y11.3709 
G01 X-66.3366 Y11.2236 
G01 X-66.2855 Y11.0664 
G01 X-66.2596 Y10.9031 
G01 X-66.2596 Y10.8038 
G01 X-66.1718 Y10.6315 
G01 X-66.1120 Y10.4476 
G01 X-66.0818 Y10.2567 
G01 X-66.0818 Y4.9833  
G01 X-66.1120 Y4.7924  
G01 X-66.1580 Y4.6510  
G01 X-66.1580 Y4.2273  
G01 X-66.1864 Y4.0482  
G01 X-66.2424 Y3.8758  
G01 X-66.3247 Y3.7142  
G01 X-66.4313 Y3.5675  
G01 X-66.5595 Y3.4393  
G01 X-66.7062 Y3.3327  
G01 X-66.8678 Y3.2504  
G01 X-67.0402 Y3.1944  
G01 X-67.2193 Y3.1660  
G01 X-67.4007 Y3.1660  
G01 X-67.5798 Y3.1944  
G01 X-67.7522 Y3.2504  
G01 X-67.9138 Y3.3327  
G01 X-68.0605 Y3.4393  
G01 X-68.1887 Y3.5675  
G01 X-68.2953 Y3.7142  
G01 X-68.3776 Y3.8758  
G01 X-68.4336 Y4.0482  
G01 X-68.4620 Y4.2273  
G01 X-68.4620 Y4.6510  
G01 X-68.5080 Y4.7924  
G01 X-68.5382 Y4.9833  
G01 X-68.5382 Y10.2567 
G01 X-68.5080 Y10.4476 
G01 X-68.4482 Y10.6315 
G01 X-68.3604 Y10.8037 
G01 X-68.3604 Y10.9031 
G01 X-68.3345 Y11.0664 
G01 X-68.2834 Y11.2236 
G01 X-68.2084 Y11.3709 
G01 X-68.1112 Y11.5047 
G01 X-67.9943 Y11.6216 
G01 X-67.8605 Y11.7188 
G01 X-67.7132 Y11.7938 
G01 X-67.5560 Y11.8449 
G01 X-67.3927 Y11.8708 
G01 X-67.2273 Y11.8708 
G01 X-67.0640 Y11.8449 
G01 X-66.9068 Y11.7938 
G01 X-66.7595 Y11.7188 
G01 X-66.6257 Y11.6216 
G00 Z2.0000  
G00 X-65.4543 Y16.3184 
G01 Z-0.0500 F500   
G01 X-65.5712 Y16.4353 F500   
G01 X-65.6684 Y16.5691 
G01 X-65.7434 Y16.7164 
G01 X-65.7945 Y16.8736 
G01 X-65.8204 Y17.0369 
G01 X-65.8204 Y17.1362 
G01 X-65.9082 Y17.3085 
G01 X-65.9680 Y17.4924 
G01 X-65.9982 Y17.6833 
G01 X-65.9982 Y25.0195 
G01 X-65.9716 Y25.1187 
G01 X-65.9203 Y25.2077 
G01 X-65.8477 Y25.2803 
G01 X-65.7587 Y25.3316 
G01 X-65.6595 Y25.3582 
G01 X-63.8805 Y25.3582 
G01 X-63.7813 Y25.3316 
G01 X-63.6923 Y25.2803 
G01 X-63.6197 Y25.2077 
G01 X-63.5684 Y25.1187 
G01 X-63.5418 Y25.0195 
G01 X-63.5418 Y17.6833 
G01 X-63.5720 Y17.4924 
G01 X-63.6318 Y17.3085 
G01 X-63.7195 Y17.1363 
G01 X-63.7196 Y17.0369 
G01 X-63.7455 Y16.8736 
G01 X-63.7966 Y16.7164 
G01 X-63.8716 Y16.5691 
G01 X-63.9688 Y16.4353 
G01 X-64.0857 Y16.3184 
G01 X-64.2195 Y16.2212 
G01 X-64.3668 Y16.1462 
G01 X-64.5240 Y16.0951 
G01 X-64.6873 Y16.0692 
G01 X-64.8527 Y16.0692 
G01 X-65.0160 Y16.0951 
G01 X-65.1732 Y16.1462 
G01 X-65.3205 Y16.2212 
G01 X-65.4543 Y16.3184 
G00 Z2.0000  
G00 X-62.9143 Y16.3184 
G01 Z-0.0500 F500   
G01 X-63.0312 Y16.4353 F500   
G01 X-63.1284 Y16.5691 
G01 X-63.2034 Y16.7164 
G01 X-63.2545 Y16.8736 
G01 X-63.2804 Y17.0369 
G01 X-63.2804 Y17.1362 
G01 X-63.3682 Y17.3085 
G01 X-63.4280 Y17.4924 
G01 X-63.4582 Y17.6833 
G01 X-63.4582 Y25.0195 
G01 X-63.4316 Y25.1187 
G01 X-63.3803 Y25.2077 
G01 X-63.3077 Y25.2803 
G01 X-63.2187 Y25.3316 
G01 X-63.1195 Y25.3582 
G01 X-61.3405 Y25.3582 
G01 X-61.2413 Y25.3316 
G01 X-61.1523 Y25.2803 
G01 X-61.0797 Y25.2077 
G01 X-61.0284 Y25.1187 
G01 X-61.0018 Y25.0195 
G01 X-61.0018 Y17.6833 
G01 X-61.0320 Y17.4924 
G01 X-61.0918 Y17.3085 
G01 X-61.1795 Y17.1363 
G01 X-61.1796 Y17.0369 
G01 X-61.2055 Y16.8736 
G01 X-61.2566 Y16.7164 
G01 X-61.3316 Y16.5691 
G01 X-61.4288 Y16.4353 
G01 X-61.5457 Y16.3184 
G01 X-61.6795 Y16.2212 
G01 X-61.8268 Y16.1462 
G01 X-61.9840 Y16.0951 
G01 X-62.1473 Y16.0692 
G01 X-62.3127 Y16.0692 
G01 X-62.4760 Y16.0951 
G01 X-62.6332 Y16.1462 
G01 X-62.7805 Y16.2212 
G01 X-62.9143 Y16.3184 
G00 Z2.0000  
G00 X-57.8343 Y16.3184 
G01 Z-0.0500 F500   
G01 X-57.9512 Y16.4353 F500   
G01 X-58.0484 Y16.5691 
G01 X-58.1234 Y16.7164 
G01 X-58.1745 Y16.8736 
G01 X-58.2004 Y17.0369 
G01 X-58.2004 Y17.1362 
G01 X-58.2882 Y17.3085 
G01 X-58.3480 Y17.4924 
G01 X-58.3782 Y17.6833 
G01 X-58.3782 Y25.0195 
G01 X-58.3516 Y25.1187 
G01 X-58.3003 Y25.2077 
G01 X-58.2277 Y25.2803 
G01 X-58.1387 Y25.3316 
G01 X-58.0395 Y25.3582 
G01 X-56.2605 Y25.3582 
G01 X-56.1613 Y25.3316 
G01 X-56.0723 Y25.2803 
G01 X-55.9997 Y25.2077 
G01 X-55.9484 Y25.1187 
G01 X-55.9218 Y25.0195 
G01 X-55.9218 Y17.6833 
G01 X-55.9520 Y17.4924 
G01 X-56.0118 Y17.3085 
G01 X-56.0996 Y17.1363 
G01 X-56.0996 Y17.0369 
G01 X-56.1255 Y16.8736 
G01 X-56.1766 Y16.7164 
G01 X-56.2516 Y16.5691 
G01 X-56.3488 Y16.4353 
G01 X-56.4657 Y16.3184 
G01 X-56.5995 Y16.2212 
G01 X-56.7468 Y16.1462 
G01 X-56.9040 Y16.0951 
G01 X-57.0673 Y16.0692 
G01 X-57.2327 Y16.0692 
G01 X-57.3960 Y16.0951 
G01 X-57.5532 Y16.1462 
G01 X-57.7005 Y16.2212 
G01 X-57.8343 Y16.3184 
G00 Z2.0000  
G00 X-69.0488 Y16.4353 
G01 Z-0.0500 F500   
G01 X-69.1657 Y16.3184 F500   
G01 X-69.2995 Y16.2212 
G01 X-69.4468 Y16.1462 
G01 X-69.6040 Y16.0951 
G01 X-69.7673 Y16.0692 
G01 X-69.9327 Y16.0692 
G01 X-70.0960 Y16.0951 
G01 X-70.2532 Y16.1462 
G01 X-70.4005 Y16.2212 
G01 X-70.5343 Y16.3184 
G01 X-70.6512 Y16.4353 
G01 X-70.7484 Y16.5691 
G01 X-70.8234 Y16.7164 
G01 X-70.8745 Y16.8736 
G01 X-70.9004 Y17.0369 
G01 X-70.9004 Y17.1362 
G01 X-70.9882 Y17.3085 
G01 X-71.0480 Y17.4924 
G01 X-71.0782 Y17.6833 
G01 X-71.0782 Y21.2095 
G01 X-71.0516 Y21.3087 
G01 X-71.0003 Y21.3977 
G01 X-70.9277 Y21.4703 
G01 X-70.8387 Y21.5216 
G01 X-70.7395 Y21.5482 
G01 X-68.9605 Y21.5482 
G01 X-68.8613 Y21.5216 
G01 X-68.7723 Y21.4703 
G01 X-68.6997 Y21.3977 
G01 X-68.6484 Y21.3087 
G01 X-68.6218 Y21.2095 
G01 X-68.6218 Y17.6833 
G01 X-68.6520 Y17.4924 
G01 X-68.7118 Y17.3085 
G01 X-68.7995 Y17.1363 
G01 X-68.7996 Y17.0369 
G01 X-68.8255 Y16.8736 
G01 X-68.8766 Y16.7164 
G01 X-68.9516 Y16.5691 
G01 X-69.0488 Y16.4353 
G00 Z2.0000  
G00 X-78.8367 Y27.9818 
G01 Z-0.0500 F500   
G01 X-79.0276 Y28.0120 F500   
G01 X-79.1690 Y28.0580 
G01 X-79.5927 Y28.0580 
G01 X-79.7718 Y28.0864 
G01 X-79.9442 Y28.1424 
G01 X-80.1058 Y28.2247 
G01 X-80.2525 Y28.3313 
G01 X-80.3807 Y28.4595 
G01 X-80.4873 Y28.6062 
G01 X-80.5696 Y28.7678 
G01 X-80.6256 Y28.9402 
G01 X-80.6540 Y29.1193 
G01 X-80.6540 Y29.3007 
G01 X-80.6256 Y29.4798 
G01 X-80.5696 Y29.6522 
G01 X-80.4873 Y29.8138 
G01 X-80.3807 Y29.9605 
G01 X-80.2525 Y30.0887 
G01 X-80.1058 Y30.1953 
G01 X-79.9442 Y30.2776 
G01 X-79.7718 Y30.3336 
G01 X-79.5927 Y30.3620 
G01 X-79.1690 Y30.3620 
G01 X-79.0276 Y30.4080 
G01 X-78.8367 Y30.4382 
G01 X-7.5233 Y30.4382 
G01 X-7.3324 Y30.4080 
G01 X-7.1909 Y30.3620 
G01 X-6.7673 Y30.3620 
G01 X-6.5882 Y30.3336 
G01 X-6.4158 Y30.2776 
G01 X-6.2542 Y30.1953 
G01 X-6.1075 Y30.0887 
G01 X-5.9793 Y29.9605 
G01 X-5.8727 Y29.8138 
G01 X-5.7904 Y29.6522 
G01 X-5.7344 Y29.4798 
G01 X-5.7060 Y29.3007 
G01 X-5.7060 Y29.1193 
G01 X-5.7344 Y28.9402 
G01 X-5.7904 Y28.7678 
G01 X-5.8727 Y28.6062 
G01 X-5.9793 Y28.4595 
G01 X-6.1075 Y28.3313 
G01 X-6.2542 Y28.2247 
G01 X-6.4158 Y28.1424 
G01 X-6.5882 Y28.0864 
G01 X-6.7673 Y28.0580 
G01 X-7.1909 Y28.0580 
G01 X-7.3324 Y28.0120 
G01 X-7.5233 Y27.9818 
G01 X-78.8367 Y27.9818 
G00 Z2.0000  
G00 X-78.8367 Y30.5218 
G01 Z-0.0500 F500   
G01 X-79.0276 Y30.5520 F500   
G01 X-79.1690 Y30.5980 
G01 X-79.5927 Y30.5980 
G01 X-79.7718 Y30.6264 
G01 X-79.9442 Y30.6824 
G01 X-80.1058 Y30.7647 
G01 X-80.2525 Y30.8713 
G01 X-80.3807 Y30.9995 
G01 X-80.4873 Y31.1462 
G01 X-80.5696 Y31.3078 
G01 X-80.6256 Y31.4802 
G01 X-80.6540 Y31.6593 
G01 X-80.6540 Y31.8407 
G01 X-80.6256 Y32.0198 
G01 X-80.5696 Y32.1922 
G01 X-80.4873 Y32.3538 
G01 X-80.3807 Y32.5005 
G01 X-80.2525 Y32.6287 
G01 X-80.1058 Y32.7353 
G01 X-79.9442 Y32.8176 
G01 X-79.7718 Y32.8736 
G01 X-79.5927 Y32.9020 
G01 X-79.1690 Y32.9020 
G01 X-79.0276 Y32.9480 
G01 X-78.8367 Y32.9782 
G01 X-7.5233 Y32.9782 
G01 X-7.3324 Y32.9480 
G01 X-7.1909 Y32.9020 
G01 X-6.7673 Y32.9020 
G01 X-6.5882 Y32.8736 
G01 X-6.4158 Y32.8176 
G01 X-6.2542 Y32.7353 
G01 X-6.1075 Y32.6287 
G01 X-5.9793 Y32.5005 
G01 X-5.8727 Y32.3538 
G01 X-5.7904 Y32.1922 
G01 X-5.7344 Y32.0198 
G01 X-5.7060 Y31.8407 
G01 X-5.7060 Y31.6593 
G01 X-5.7344 Y31.4802 
G01 X-5.7904 Y31.3078 
G01 X-5.8727 Y31.1462 
G01 X-5.9793 Y30.9995 
G01 X-6.1075 Y30.8713 
G01 X-6.2542 Y30.7647 
G01 X-6.4158 Y30.6824 
G01 X-6.5882 Y30.6264 
G01 X-6.7673 Y30.5980 
G01 X-7.1909 Y30.5980 
G01 X-7.3324 Y30.5520 
G01 X-7.5233 Y30.5218 
G01 X-78.8367 Y30.5218 
G00 Z2.0000  
G00 X-78.8367 Y33.0618 
G01 Z-0.0500 F500   
G01 X-79.0276 Y33.0920 F500   
G01 X-79.1690 Y33.1380 
G01 X-79.5927 Y33.1380 
G01 X-79.7718 Y33.1664 
G01 X-79.9442 Y33.2224 
G01 X-80.1058 Y33.3047 
G01 X-80.2525 Y33.4113 
G01 X-80.3807 Y33.5395 
G01 X-80.4873 Y33.6862 
G01 X-80.5696 Y33.8478 
G01 X-80.6256 Y34.0202 
G01 X-80.6540 Y34.1993 
G01 X-80.6540 Y34.3807 
G01 X-80.6256 Y34.5598 
G01 X-80.5696 Y34.7322 
G01 X-80.4873 Y34.8938 
G01 X-80.3807 Y35.0405 
G01 X-80.2525 Y35.1687 
G01 X-80.1058 Y35.2753 
G01 X-79.9442 Y35.3576 
G01 X-79.7718 Y35.4136 
G01 X-79.5927 Y35.4420 
G01 X-79.1690 Y35.4420 
G01 X-79.0276 Y35.4880 
G01 X-78.8367 Y35.5182 
G01 X-7.5233 Y35.5182 
G01 X-7.3324 Y35.4880 
G01 X-7.1909 Y35.4420 
G01 X-6.7673 Y35.4420 
G01 X-6.5882 Y35.4136 
G01 X-6.4158 Y35.3576 
G01 X-6.2542 Y35.2753 
G01 X-6.1075 Y35.1687 
G01 X-5.9793 Y35.0405 
G01 X-5.8727 Y34.8938 
G01 X-5.7904 Y34.7322 
G01 X-5.7344 Y34.5598 
G01 X-5.7060 Y34.3807 
G01 X-5.7060 Y34.1993 
G01 X-5.7344 Y34.0202 
G01 X-5.7904 Y33.8478 
G01 X-5.8727 Y33.6862 
G01 X-5.9793 Y33.5395 
G01 X-6.1075 Y33.4113 
G01 X-6.2542 Y33.3047 
G01 X-6.4158 Y33.2224 
G01 X-6.5882 Y33.1664 
G01 X-6.7673 Y33.1380 
G01 X-7.1909 Y33.1380 
G01 X-7.3324 Y33.0920 
G01 X-7.5233 Y33.0618 
G01 X-78.8367 Y33.0618 
G00 Z2.0000  
G00 X-78.8367 Y35.6018 
G01 Z-0.0500 F500   
G01 X-79.0276 Y35.6320 F500   
G01 X-79.1690 Y35.6780 
G01 X-79.5927 Y35.6780 
G01 X-79.7718 Y35.7064 
G01 X-79.9442 Y35.7624 
G01 X-80.1058 Y35.8447 
G01 X-80.2525 Y35.9513 
G01 X-80.3807 Y36.0795 
G01 X-80.4873 Y36.2262 
G01 X-80.5696 Y36.3878 
G01 X-80.6256 Y36.5602 
G01 X-80.6540 Y36.7393 
G01 X-80.6540 Y36.9207 
G01 X-80.6256 Y37.0998 
G01 X-80.5696 Y37.2722 
G01 X-80.4873 Y37.4338 
G01 X-80.3807 Y37.5805 
G01 X-80.2525 Y37.7087 
G01 X-80.1058 Y37.8153 
G01 X-79.9442 Y37.8976 
G01 X-79.7718 Y37.9536 
G01 X-79.5927 Y37.9820 
G01 X-79.1690 Y37.9820 
G01 X-79.0276 Y38.0280 
G01 X-78.8367 Y38.0582 
G01 X-56.2605 Y38.0582 
G01 X-56.1613 Y38.0316 
G01 X-56.0723 Y37.9803 
G01 X-55.9997 Y37.9077 
G01 X-55.9484 Y37.8187 
G01 X-55.9218 Y37.7195 
G01 X-55.9218 Y35.9405 
G01 X-55.9484 Y35.8413 
G01 X-55.9997 Y35.7523 
G01 X-56.0723 Y35.6797 
G01 X-56.1613 Y35.6284 
G01 X-56.2605 Y35.6018 
G01 X-78.8367 Y35.6018 
G00 Z2.0000  
G00 X-37.9077 Y35.6797 
G01 Z-0.0500 F500   
G01 X-37.9803 Y35.7523 F500   
G01 X-38.0316 Y35.8413 
G01 X-38.0582 Y35.9405 
G01 X-38.0582 Y37.7195 
G01 X-38.0316 Y37.8187 
G01 X-37.9803 Y37.9077 
G01 X-37.9077 Y37.9803 
G01 X-37.8187 Y38.0316 
G01 X-37.7195 Y38.0582 
G01 X-7.5233 Y38.0582 
G01 X-7.3324 Y38.0280 
G01 X-7.1909 Y37.9820 
G01 X-6.7673 Y37.9820 
G01 X-6.5882 Y37.9536 
G01 X-6.4158 Y37.8976 
G01 X-6.2542 Y37.8153 
G01 X-6.1075 Y37.7087 
G01 X-5.9793 Y37.5805 
G01 X-5.8727 Y37.4338 
G01 X-5.7904 Y37.2722 
G01 X-5.7344 Y37.0998 
G01 X-5.7060 Y36.9207 
G01 X-5.7060 Y36.7393 
G01 X-5.7344 Y36.5602 
G01 X-5.7904 Y36.3878 
G01 X-5.8727 Y36.2262 
G01 X-5.9793 Y36.0795 
G01 X-6.1075 Y35.9513 
G01 X-6.2542 Y35.8447 
G01 X-6.4158 Y35.7624 
G01 X-6.5882 Y35.7064 
G01 X-6.7673 Y35.6780 
G01 X-7.1909 Y35.6780 
G01 X-7.3324 Y35.6320 
G01 X-7.5233 Y35.6018 
G01 X-37.7195 Y35.6018 
G01 X-37.8187 Y35.6284 
G01 X-37.9077 Y35.6797 
G00 Z2.0000  
G00 X-73.6600 Y29.2100 
G01 Z-0.0400 F50    
G00 Z2.0000  
G00 X-40.6400 Y29.2100 
G01 Z-0.0400 F50    
G00 Z2.0000  
G00 X-40.6400 Y24.1300 
G01 Z-0.0400 F50    
G00 Z2.0000  
G00 X-36.8300 Y24.1300 
G01 Z-0.0400 F50    
G00 Z2.0000  
G00 X-57.1500 Y24.1300 
G01 Z-0.0400 F50    
G00 Z2.0000  
G00 X-57.1500 Y36.8300 
G01 Z-0.0400 F50    
G00 Z2.0000  
G00 X-62.2300 Y34.2900 
G01 Z-0.0400 F50    
G00 Z2.0000  
G00 X-29.2100 Y34.2900 
G01 Z-0.0400 F50    
G00 Z2.0000  
G00 X-64.7700 Y31.7500 
G01 Z-0.0400 F50    
G00 Z2.0000  
G00 X-31.7500 Y31.7500 
G01 Z-0.0400 F50    
G00 Z2.0000  
G00 X-24.1300 Y20.3200 
G01 Z-0.0400 F50    
G00 Z2.0000  
G00 X-69.8500 Y20.3200 
G01 Z-0.0400 F50    
G00 Z2.0000  
G00 X-36.8300 Y36.8300 
G01 Z-0.0400 F50    
G00 Z2.0000  
G00 X-31.7500 Y24.1300 
G01 Z-0.0400 F50    
G00 Z2.0000  
G00 X-29.2100 Y24.1300 
G01 Z-0.0400 F50    
G00 Z2.0000  
G00 X-62.2300 Y24.1300 
G01 Z-0.0400 F50    
G00 Z2.0000  
G00 X-64.7700 Y24.1300 
G01 Z-0.0400 F50    
G00 Z2.0000  
G00 X-73.6600 Y24.1300 
G01 Z-0.0400 F50    
G00 Z2.0000  
G00 X-52.0700 Y10.1600 
G01 Z-0.0400 F50    
G00 Z2.0000  
G00 X-54.6100 Y10.1600 
G01 Z-0.0400 F50    
G00 Z2.0000  
G00 X-57.1500 Y10.1600 
G01 Z-0.0400 F50    
G00 Z2.0000  
G00 X-59.6900 Y10.1600 
G01 Z-0.0400 F50    
G00 Z2.0000  
G00 X-62.2300 Y10.1600 
G01 Z-0.0400 F50    
G00 Z2.0000  
G00 X-64.7700 Y10.1600 
G01 Z-0.0400 F50    
G00 Z2.0000  
G00 X-67.3100 Y10.1600 
G01 Z-0.0400 F50    
G00 Z2.0000  
G00 X-69.8500 Y10.1600 
G01 Z-0.0400 F50    
G00 Z2.0000  
G00 X-69.8500 Y17.7800 
G01 Z-0.0400 F50    
G00 Z2.0000  
G00 X-67.3100 Y17.7800 
G01 Z-0.0400 F50    
G00 Z2.0000  
G00 X-64.7700 Y17.7800 
G01 Z-0.0400 F50    
G00 Z2.0000  
G00 X-62.2300 Y17.7800 
G01 Z-0.0400 F50    
G00 Z2.0000  
G00 X-59.6900 Y17.7800 
G01 Z-0.0400 F50    
G00 Z2.0000  
G00 X-57.1500 Y17.7800 
G01 Z-0.0400 F50    
G00 Z2.0000  
G00 X-54.6100 Y17.7800 
G01 Z-0.0400 F50    
G00 Z2.0000  
G00 X-52.0700 Y17.7800 
G01 Z-0.0400 F50    
G00 Z2.0000  
G00 X-19.0500 Y10.1600 
G01 Z-0.0400 F50    
G00 Z2.0000  
G00 X-21.5900 Y10.1600 
G01 Z-0.0400 F50    
G00 Z2.0000  
G00 X-24.1300 Y10.1600 
G01 Z-0.0400 F50    
G00 Z2.0000  
G00 X-26.6700 Y10.1600 
G01 Z-0.0400 F50    
G00 Z2.0000  
G00 X-29.2100 Y10.1600 
G01 Z-0.0400 F50    
G00 Z2.0000  
G00 X-31.7500 Y10.1600 
G01 Z-0.0400 F50    
G00 Z2.0000  
G00 X-34.2900 Y10.1600 
G01 Z-0.0400 F50    
G00 Z2.0000  
G00 X-36.8300 Y10.1600 
G01 Z-0.0400 F50    
G00 Z2.0000  
G00 X-36.8300 Y17.7800 
G01 Z-0.0400 F50    
G00 Z2.0000  
G00 X-34.2900 Y17.7800 
G01 Z-0.0400 F50    
G00 Z2.0000  
G00 X-31.7500 Y17.7800 
G01 Z-0.0400 F50    
G00 Z2.0000  
G00 X-29.2100 Y17.7800 
G01 Z-0.0400 F50    
G00 Z2.0000  
G00 X-26.6700 Y17.7800 
G01 Z-0.0400 F50    
G00 Z2.0000  
G00 X-24.1300 Y17.7800 
G01 Z-0.0400 F50    
G00 Z2.0000  
G00 X-21.5900 Y17.7800 
G01 Z-0.0400 F50    
G00 Z2.0000  
G00 X-19.0500 Y17.7800 
G01 Z-0.0400 F50    
G00 Z2.0000  
G00 X-78.7400 Y36.8300 
G01 Z-0.0400 F50    
G00 Z2.0000  
G00 X-78.7400 Y34.2900 
G01 Z-0.0400 F50    
G00 Z2.0000  
G00 X-78.7400 Y31.7500 
G01 Z-0.0400 F50    
G00 Z2.0000  
G00 X-78.7400 Y29.2100 
G01 Z-0.0400 F50    
G00 Z2.0000  
G00 X-78.7400 Y26.6700 
G01 Z-0.0400 F50    
G00 Z2.0000  
G00 X-7.6200 Y36.8300 
G01 Z-0.0400 F50    
G00 Z2.0000  
G00 X-7.6200 Y34.2900 
G01 Z-0.0400 F50    
G00 Z2.0000  
G00 X-7.6200 Y31.7500 
G01 Z-0.0400 F50    
G00 Z2.0000  
G00 X-7.6200 Y29.2100 
G01 Z-0.0400 F50    
G00 Z2.0000  
G00 X-7.6200 Y26.6700 
G01 Z-0.0400 F50    
G00 Z2.0000  
G00 X-16.5100 Y5.0800  
G01 Z-0.0400 F50    
G00 Z2.0000  
G00 X-19.0500 Y5.0800  
G01 Z-0.0400 F50    
G00 Z2.0000  
G00 X-21.5900 Y5.0800  
G01 Z-0.0400 F50    
G00 Z2.0000  
G00 X-24.1300 Y5.0800  
G01 Z-0.0400 F50    
G00 Z2.0000  
G00 X-26.6700 Y5.0800  
G01 Z-0.0400 F50    
G00 Z2.0000  
G00 X-29.2100 Y5.0800  
G01 Z-0.0400 F50    
G00 Z2.0000  
G00 X-31.7500 Y5.0800  
G01 Z-0.0400 F50    
G00 Z2.0000  
G00 X-34.2900 Y5.0800  
G01 Z-0.0400 F50    
G00 Z2.0000  
G00 X-49.5300 Y5.0800  
G01 Z-0.0400 F50    
G00 Z2.0000  
G00 X-52.0700 Y5.0800  
G01 Z-0.0400 F50    
G00 Z2.0000  
G00 X-54.6100 Y5.0800  
G01 Z-0.0400 F50    
G00 Z2.0000  
G00 X-57.1500 Y5.0800  
G01 Z-0.0400 F50    
G00 Z2.0000  
G00 X-59.6900 Y5.0800  
G01 Z-0.0400 F50    
G00 Z2.0000  
G00 X-62.2300 Y5.0800  
G01 Z-0.0400 F50    
G00 Z2.0000  
G00 X-64.7700 Y5.0800  
G01 Z-0.0400 F50    
G00 Z2.0000  
G00 X-67.3100 Y5.0800  
G01 Z-0.0400 F50    
G00 Z2.0000  
G00 Z5.0000  
M05
M02
